GR3-N-V3 Plady.cube
TITLE "Generated by LUMIX Lab"
#LUMIXPHOTOSTYLE STD
LUT_3D_SIZE 5
DOMAIN_MIN 0.0 0.0 0.0
DOMAIN_MAX 1.0 1.0 1.0
0.000000 0.000000 0.000000
0.268650 0.082551 0.000000
0.548821 0.173861 0.000000
0.816709 0.268864 0.000000
1.000000 0.367193 0.109682
0.000000 0.244053 0.148348
0.250340 0.259312 0.127932
0.595209 0.322362 0.161288
0.858061 0.373907 0.181430
1.000000 0.443275 0.233371
0.000000 0.474342 0.293431
0.076905 0.470375 0.268711
0.533471 0.549218 0.298314
0.875700 0.637324 0.390387
1.000000 0.678065 0.493385
0.000000 0.692592 0.425818
0.000000 0.689418 0.410193
0.347814 0.698024 0.371283
0.792966 0.807553 0.505272
1.000000 0.865751 0.661982
0.269688 0.943786 0.644617
0.316655 0.941955 0.637354
0.450050 0.937774 0.611627
0.705257 0.952026 0.622889
0.971649 0.982574 0.751492
0.043549 0.114687 0.245304
0.271763 0.125216 0.253056
0.536431 0.195163 0.231815
0.779355 0.268254 0.222538
1.000000 0.364721 0.234867
0.132723 0.241154 0.270573
0.278691 0.277714 0.277348
0.550225 0.311040 0.278874
0.813352 0.366003 0.282200
1.000000 0.439582 0.302983
0.096864 0.498543 0.386114
0.223636 0.491066 0.359655
0.542046 0.552972 0.382757
0.871519 0.641810 0.466468
1.000000 0.684108 0.541527
0.000000 0.704189 0.478828
0.000000 0.700252 0.463020
0.370275 0.700099 0.420600
0.796750 0.808164 0.555077
1.000000 0.870268 0.693996
0.309178 0.947387 0.668574
0.349523 0.945373 0.661036
0.470100 0.939971 0.634516
0.707454 0.951873 0.639460
0.972839 0.982879 0.767086
0.162661 0.244144 0.494026
0.299809 0.259251 0.507530
0.575555 0.291386 0.533501
0.816464 0.378180 0.495399
1.000000 0.422217 0.474342
0.201114 0.332677 0.495399
0.311772 0.343847 0.507530
0.573175 0.378820 0.539208
0.812314 0.448341 0.517113
1.000000 0.445533 0.473548
0.273167 0.474159 0.527581
0.351598 0.490517 0.532158
0.559716 0.555993 0.552087
0.805356 0.583185 0.555962
1.000000 0.627283 0.570275
0.285924 0.746334 0.660304
0.343755 0.746059 0.649042
0.488258 0.729091 0.589715
0.808408 0.810269 0.674678
1.000000 0.882048 0.775998
0.407233 0.964904 0.764462
0.438239 0.962463 0.755489
0.538323 0.952819 0.721767
0.710201 0.952636 0.696956
0.977508 0.984710 0.818448
0.290867 0.384039 0.728817
0.372320 0.394507 0.736202
0.598596 0.440040 0.765743
0.852232 0.489082 0.782834
1.000000 0.581964 0.734096
0.307652 0.434821 0.726101
0.382849 0.444831 0.733272
0.601038 0.491402 0.763394
0.847318 0.543267 0.783474
1.000000 0.624811 0.744289
0.309972 0.571099 0.720577
0.378180 0.573602 0.723232
0.592279 0.609979 0.749050
0.834195 0.676326 0.787655
0.992645 0.741634 0.781277
0.396887 0.683009 0.751827
0.445411 0.691157 0.753109
0.600488 0.725917 0.760006
0.809049 0.798672 0.785397
1.000000 0.822171 0.791348
0.474922 0.968292 0.916655
0.507805 0.971679 0.915038
0.616785 0.981567 0.899779
0.755215 0.969574 0.828946
0.986145 0.989471 0.899382
0.568902 0.627985 0.952300
0.600885 0.634272 0.952941
0.711910 0.659632 0.956329
0.867338 0.702388 0.964172
1.000000 0.728237 0.961852
0.576959 0.652064 0.952422
0.607813 0.657771 0.953033
0.715785 0.681361 0.956237
0.868254 0.722805 0.964141
1.000000 0.748257 0.962554
0.575738 0.722347 0.955505
0.607019 0.725582 0.955901
0.714199 0.743343 0.958190
0.867613 0.783474 0.965911
1.000000 0.811521 0.966827
0.529015 0.833005 0.966766
0.556970 0.834257 0.967193
0.660121 0.835477 0.968536
0.847349 0.857053 0.972442
1.000000 0.901213 0.977691
0.569879 0.902434 0.997375
0.593164 0.905882 0.997406
0.681331 0.920653 0.997650
0.837491 0.953552 0.997559
1.000000 1.000000 1.000000
