GR3-P-V3 Plady.cube
TITLE "Generated by LUMIX Lab"
#LUMIXPHOTOSTYLE STD
LUT_3D_SIZE 9
DOMAIN_MIN 0.0 0.0 0.0
DOMAIN_MAX 1.0 1.0 1.0
0.000000 0.000000 0.000000
0.103578 0.003235 0.003632
0.190158 0.028504 0.011566
0.295781 0.026612 0.021485
0.422980 0.000000 0.034241
0.564385 0.000000 0.031617
0.709224 0.000000 0.022309
0.851316 0.000000 0.019928
0.992523 0.000000 0.051453
0.034638 0.096376 0.025147
0.104036 0.098543 0.014313
0.188724 0.102968 0.039857
0.299535 0.107362 0.049714
0.429358 0.099580 0.053040
0.571435 0.033906 0.047944
0.715419 0.000000 0.040528
0.855863 0.000000 0.044007
0.995392 0.000000 0.082704
0.091310 0.187015 0.082246
0.122499 0.186740 0.085359
0.205203 0.195590 0.044739
0.314214 0.200839 0.078340
0.452857 0.215518 0.108614
0.601099 0.215427 0.109163
0.740627 0.202701 0.109560
0.874388 0.185183 0.118379
1.000000 0.171450 0.140505
0.119203 0.307408 0.114534
0.149447 0.307530 0.117067
0.227512 0.309483 0.117159
0.341558 0.325292 0.039765
0.482887 0.334417 0.021302
0.632776 0.350896 0.141329
0.776181 0.360388 0.179599
0.902922 0.361120 0.204532
1.000000 0.365057 0.234012
0.145846 0.452461 0.146487
0.175784 0.452857 0.148989
0.260014 0.454047 0.155520
0.365789 0.460639 0.141085
0.504845 0.480415 0.000000
0.661646 0.486854 0.000000
0.795499 0.490059 0.173159
0.922179 0.509758 0.276402
1.000000 0.530480 0.344274
0.196841 0.602899 0.198001
0.222110 0.603265 0.200198
0.299382 0.604517 0.208011
0.401312 0.606744 0.211490
0.519127 0.615625 0.180484
0.662379 0.629603 0.009339
0.814420 0.628382 0.000000
0.938170 0.625727 0.227939
1.000000 0.649165 0.383032
0.300969 0.742123 0.292485
0.316686 0.742336 0.294499
0.372564 0.743160 0.302190
0.456977 0.744472 0.311040
0.555169 0.747738 0.305760
0.670130 0.756405 0.264958
0.806546 0.765438 0.175418
0.948028 0.759884 0.106966
1.000000 0.752712 0.309178
0.441627 0.870268 0.423499
0.450690 0.870329 0.425086
0.486610 0.870603 0.431342
0.547112 0.871153 0.440314
0.623041 0.872068 0.445197
0.709468 0.876188 0.431250
0.812741 0.883848 0.386725
0.934813 0.889128 0.308415
1.000000 0.878965 0.260410
0.583612 0.982757 0.558831
0.589166 0.982696 0.559869
0.611627 0.982452 0.563867
0.652186 0.982025 0.570397
0.707118 0.981628 0.576562
0.771237 0.982300 0.575494
0.844541 0.985718 0.557183
0.932525 0.990356 0.516289
1.000000 0.989929 0.454261
0.010773 0.015076 0.096834
0.105959 0.007416 0.098604
0.192386 0.017060 0.102144
0.298528 0.002045 0.100343
0.423774 0.000000 0.100160
0.563165 0.000000 0.098817
0.707179 0.000000 0.095888
0.849454 0.000000 0.095308
0.991241 0.000000 0.105745
0.018982 0.101076 0.099825
0.101869 0.101869 0.101869
0.193454 0.103151 0.103700
0.301610 0.101259 0.105501
0.429389 0.084047 0.106081
0.569818 0.000000 0.104433
0.713100 0.000000 0.101930
0.853849 0.000000 0.103517
0.994079 0.000000 0.116274
0.086458 0.191379 0.116152
0.122805 0.191043 0.119753
0.205081 0.197238 0.110811
0.314611 0.203342 0.126192
0.453101 0.214755 0.138582
0.599054 0.210819 0.136538
0.738033 0.196597 0.135866
0.872099 0.177981 0.142397
1.000000 0.163058 0.160098
0.114839 0.309911 0.140871
0.147463 0.310063 0.143618
0.227970 0.311345 0.146731
0.341527 0.326116 0.114137
0.482795 0.334539 0.117189
0.633295 0.352514 0.174228
0.774685 0.360418 0.202426
0.900999 0.360327 0.222232
1.000000 0.364019 0.247501
0.141329 0.453925 0.170077
0.173739 0.454261 0.172641
0.259648 0.455634 0.179538
0.365881 0.461555 0.170413
0.504753 0.480842 0.103120
0.661433 0.486671 0.043580
0.794644 0.491737 0.206882
0.921111 0.512779 0.297398
1.000000 0.532769 0.358190
0.196506 0.603510 0.218112
0.221714 0.603845 0.220432
0.299992 0.605188 0.228275
0.402197 0.607294 0.233158
0.519219 0.615930 0.207767
0.662104 0.629786 0.123903
0.814084 0.628534 0.032349
0.936889 0.627405 0.257664
1.000000 0.652399 0.400732
0.303441 0.742275 0.307256
0.318914 0.742489 0.309453
0.374853 0.743313 0.317205
0.458961 0.744686 0.326635
0.556481 0.747768 0.322881
0.670344 0.756435 0.285801
0.806302 0.765591 0.208286
0.947478 0.760250 0.164065
1.000000 0.754238 0.332860
0.443305 0.870329 0.432715
0.452522 0.870390 0.434394
0.488319 0.870695 0.440681
0.548760 0.871214 0.449866
0.624567 0.872129 0.455329
0.710445 0.876127 0.442847
0.812955 0.883787 0.400885
0.934447 0.889250 0.327947
1.000000 0.879301 0.285313
0.584161 0.982879 0.563836
0.589715 0.982788 0.564874
0.612268 0.982513 0.569024
0.652918 0.982086 0.575616
0.707820 0.981689 0.582025
0.771878 0.982300 0.581445
0.844938 0.985657 0.564050
0.932494 0.990295 0.524468
1.000000 0.989960 0.464698
0.041382 0.049226 0.173404
0.107149 0.040803 0.175967
0.190951 0.033387 0.181369
0.299474 0.005524 0.199191
0.428595 0.000000 0.198947
0.562585 0.000000 0.190585
0.700008 0.000000 0.183474
0.841581 0.000000 0.181827
0.986053 0.000000 0.185885
0.038025 0.111757 0.178561
0.103243 0.108736 0.180941
0.194217 0.102083 0.186465
0.304784 0.093385 0.199924
0.432227 0.000000 0.196841
0.565026 0.000000 0.189090
0.703914 0.000000 0.185092
0.845212 0.000000 0.185367
0.988586 0.000000 0.190890
0.020813 0.194553 0.192447
0.100740 0.196170 0.194553
0.202304 0.202243 0.201968
0.317784 0.201358 0.202731
0.447181 0.196231 0.203006
0.586236 0.184115 0.202823
0.724971 0.164645 0.204013
0.861753 0.138460 0.208011
0.999145 0.111360 0.218479
0.000000 0.316838 0.207370
0.107118 0.317662 0.210727
0.226902 0.319158 0.224002
0.340093 0.328862 0.214267
0.479835 0.338384 0.233433
0.631464 0.356603 0.260258
0.765469 0.356390 0.267979
0.891783 0.353216 0.275975
1.000000 0.355077 0.291264
0.106477 0.458259 0.238926
0.153384 0.458900 0.241978
0.256626 0.460945 0.252323
0.366552 0.464698 0.255894
0.503502 0.482277 0.224460
0.658717 0.487037 0.230930
0.789853 0.500481 0.306493
0.915251 0.523278 0.366552
1.000000 0.539086 0.405249
0.189822 0.605280 0.283238
0.217624 0.605737 0.285863
0.301213 0.607416 0.295201
0.405859 0.609705 0.304845
0.519738 0.616815 0.292699
0.660700 0.630518 0.248234
0.811673 0.629633 0.242985
0.930510 0.635676 0.353918
1.000000 0.665248 0.463844
0.310704 0.742611 0.360174
0.326360 0.742885 0.362554
0.382971 0.743862 0.371435
0.467140 0.745418 0.383398
0.562402 0.747951 0.385626
0.671534 0.756405 0.358740
0.804898 0.766232 0.304723
0.944884 0.761929 0.288334
1.000000 0.760861 0.413977
0.448463 0.870634 0.467231
0.457832 0.870726 0.468940
0.493904 0.871061 0.475593
0.554620 0.871672 0.485817
0.630030 0.872496 0.493599
0.714046 0.875944 0.486122
0.813657 0.883604 0.452857
0.932982 0.889677 0.395666
1.000000 0.880705 0.367834
0.585077 0.983429 0.583368
0.590784 0.983337 0.584497
0.613733 0.983032 0.588830
0.655024 0.982544 0.596002
0.710292 0.982025 0.603418
0.774350 0.982300 0.604974
0.846342 0.985382 0.590814
0.932403 0.990082 0.556146
1.000000 0.990021 0.504143
0.025330 0.088228 0.260716
0.102083 0.082490 0.262547
0.196841 0.053590 0.269383
0.290623 0.014984 0.276280
0.421851 0.000000 0.308843
0.570031 0.000000 0.319066
0.707332 0.000000 0.310979
0.841520 0.000000 0.299931
0.981537 0.000000 0.290105
0.010468 0.120333 0.266361
0.095064 0.117494 0.268101
0.195682 0.105776 0.274723
0.295018 0.092256 0.281468
0.427924 0.028687 0.312047
0.573510 0.000000 0.318547
0.709133 0.000000 0.309880
0.842618 0.000000 0.299046
0.982574 0.000000 0.289647
0.005219 0.207004 0.282750
0.091920 0.206271 0.284459
0.190402 0.198306 0.291203
0.310552 0.190219 0.299809
0.448066 0.189425 0.321660
0.584588 0.157137 0.316411
0.715297 0.101869 0.306371
0.847288 0.000000 0.297063
0.989014 0.000000 0.296513
0.000000 0.308659 0.304936
0.000000 0.310491 0.306889
0.191562 0.317967 0.315129
0.333135 0.332372 0.331670
0.468238 0.329900 0.330907
0.605921 0.325414 0.330358
0.738674 0.320043 0.331487
0.870756 0.314763 0.334936
1.000000 0.313756 0.343694
0.000000 0.456825 0.323003
0.000000 0.458350 0.325017
0.202792 0.464240 0.335637
0.365850 0.471382 0.360876
0.498390 0.483803 0.351904
0.646448 0.493599 0.379889
0.778897 0.518456 0.427253
0.901152 0.528344 0.446113
1.000000 0.533562 0.458595
0.105745 0.604761 0.363714
0.164401 0.605676 0.367224
0.285801 0.608789 0.381201
0.409644 0.612879 0.401465
0.522148 0.617426 0.406500
0.656306 0.631220 0.380224
0.802914 0.633967 0.396948
0.916686 0.654231 0.482612
1.000000 0.684810 0.549676
0.305577 0.742245 0.433265
0.323613 0.742611 0.436103
0.386603 0.744106 0.447120
0.476417 0.746456 0.463722
0.572198 0.748775 0.475288
0.673793 0.755978 0.462989
0.801480 0.767147 0.428046
0.938018 0.766079 0.430304
1.000000 0.773129 0.524437
0.445655 0.871397 0.518364
0.455756 0.871519 0.520287
0.494789 0.871977 0.527977
0.559075 0.872801 0.540368
0.636652 0.873808 0.552209
0.719448 0.876188 0.552667
0.814511 0.883604 0.530571
0.930266 0.890684 0.490394
1.000000 0.883360 0.476905
0.581170 0.984863 0.615747
0.587274 0.984771 0.617029
0.611810 0.984405 0.621942
0.655482 0.983764 0.630457
0.712825 0.983032 0.639918
0.777768 0.982727 0.645167
0.848447 0.985168 0.636194
0.931975 0.989868 0.608392
1.000000 0.990326 0.566369
0.000000 0.104524 0.351965
0.067536 0.101320 0.353246
0.185031 0.084443 0.358373
0.294987 0.013519 0.367163
0.394751 0.000000 0.375402
0.543511 0.000000 0.420050
0.711147 0.000000 0.448920
0.849912 0.000000 0.442420
0.988312 0.000000 0.432654
0.000000 0.128969 0.356634
0.040131 0.126101 0.357916
0.181033 0.113924 0.362951
0.295628 0.088197 0.371801
0.398871 0.012207 0.379858
0.549004 0.000000 0.423713
0.713741 0.000000 0.449378
0.851133 0.000000 0.441993
0.989044 0.000000 0.431922
0.000000 0.205081 0.372656
0.000000 0.202945 0.373968
0.170077 0.194919 0.379187
0.298070 0.180636 0.389227
0.415259 0.169162 0.397345
0.570214 0.166262 0.438636
0.723018 0.123171 0.450752
0.855253 0.000000 0.440192
0.991852 0.000000 0.429145
0.000000 0.315190 0.399451
0.000000 0.316014 0.401129
0.181399 0.318059 0.407416
0.303044 0.310918 0.418372
0.444648 0.304295 0.430182
0.601617 0.319402 0.461219
0.733211 0.300389 0.451545
0.860288 0.271153 0.437201
0.996490 0.230472 0.424811
0.000000 0.433722 0.427924
0.000000 0.435462 0.429816
0.149020 0.443061 0.437751
0.318822 0.458350 0.454108
0.485054 0.483223 0.481422
0.617975 0.479225 0.478767
0.747280 0.474739 0.476783
0.876463 0.470954 0.476692
1.000000 0.471138 0.481361
0.000000 0.593072 0.449561
0.000000 0.594385 0.451118
0.097261 0.599573 0.458320
0.356695 0.608698 0.479316
0.524285 0.619379 0.516564
0.646967 0.630884 0.510643
0.785000 0.645594 0.545373
0.904356 0.675685 0.595361
1.000000 0.687892 0.613306
0.162936 0.736599 0.493233
0.206180 0.737270 0.496162
0.319829 0.740139 0.508934
0.452796 0.745571 0.534234
0.573693 0.751095 0.560784
0.675349 0.755947 0.566674
0.796017 0.768429 0.546136
0.928252 0.772641 0.563470
1.000000 0.790005 0.634943
0.395422 0.871733 0.567254
0.409888 0.871946 0.569818
0.462989 0.872862 0.579889
0.544976 0.874418 0.597253
0.636347 0.876219 0.616815
0.724269 0.877836 0.627985
0.814725 0.884215 0.616724
0.926909 0.892546 0.588525
1.000000 0.887022 0.587610
0.560143 0.987854 0.655055
0.567620 0.987732 0.656641
0.597070 0.987243 0.662959
0.648005 0.986297 0.674006
0.712093 0.985138 0.687343
0.780941 0.984192 0.697780
0.851225 0.985260 0.696376
0.931090 0.989837 0.675837
1.000000 0.990967 0.642573
0.000000 0.117739 0.446265
0.000000 0.114473 0.447059
0.161593 0.099123 0.450538
0.280125 0.027283 0.457282
0.396338 0.000000 0.465858
0.500359 0.000000 0.475532
0.662257 0.000000 0.530571
0.844022 0.000000 0.575982
0.992859 0.000000 0.579614
0.000000 0.137362 0.449897
0.000000 0.134524 0.450752
0.155428 0.121889 0.454200
0.278447 0.091615 0.461006
0.397742 0.000000 0.469764
0.503868 0.000000 0.479225
0.666590 0.000000 0.533776
0.846281 0.000000 0.577111
0.993774 0.000000 0.579492
0.000000 0.203189 0.463691
0.000000 0.201358 0.464576
0.134890 0.193088 0.468269
0.272892 0.176150 0.475654
0.404425 0.152834 0.485420
0.518547 0.129488 0.494270
0.683772 0.102998 0.546715
0.854429 0.036103 0.581506
0.997040 0.000000 0.579065
0.000000 0.310094 0.489082
0.000000 0.309026 0.490089
0.123445 0.303349 0.494087
0.268956 0.291905 0.501762
0.415503 0.277256 0.514122
0.546349 0.270115 0.523278
0.712215 0.293645 0.570336
0.864622 0.294347 0.586572
1.000000 0.250523 0.577356
0.000000 0.433112 0.522698
0.000000 0.434058 0.524071
0.153262 0.437873 0.529686
0.296483 0.443244 0.539574
0.430152 0.436622 0.551781
0.583001 0.432288 0.564782
0.740169 0.464881 0.598993
0.871580 0.444221 0.587762
1.000000 0.414679 0.572442
0.000000 0.560479 0.552331
0.000000 0.561791 0.553704
0.000000 0.567376 0.559533
0.290562 0.578607 0.571435
0.462593 0.596857 0.590997
0.630915 0.627008 0.623224
0.755734 0.620691 0.618158
0.882506 0.614984 0.614374
1.000000 0.613428 0.615137
0.000000 0.719478 0.571344
0.000000 0.720333 0.572351
0.000000 0.723964 0.577081
0.290379 0.731136 0.588769
0.502312 0.742824 0.614923
0.672419 0.757443 0.658412
0.787900 0.769009 0.654810
0.914580 0.784939 0.690333
1.000000 0.811154 0.736446
0.000000 0.867338 0.609461
0.145083 0.867704 0.611353
0.297063 0.869200 0.619867
0.449500 0.872282 0.638788
0.599634 0.877073 0.671199
0.722225 0.881468 0.702113
0.815305 0.885496 0.708064
0.922606 0.895262 0.689143
1.000000 0.892943 0.702327
0.471687 0.993530 0.688899
0.483864 0.993378 0.690974
0.531395 0.992615 0.699825
0.607660 0.991180 0.715938
0.694972 0.989258 0.736507
0.779049 0.987335 0.755856
0.854398 0.986389 0.765194
0.930022 0.989990 0.753628
1.000000 0.992035 0.728206
0.000000 0.126467 0.567132
0.000000 0.122499 0.567529
0.105257 0.103609 0.569238
0.263890 0.005158 0.572686
0.393774 0.000000 0.578332
0.515923 0.000000 0.584253
0.626001 0.000000 0.594079
0.788571 0.000000 0.646815
0.978576 0.000000 0.700893
0.000000 0.144198 0.569512
0.000000 0.140658 0.569940
0.088441 0.124941 0.571618
0.259892 0.078798 0.575158
0.392584 0.000000 0.580896
0.517021 0.000000 0.586847
0.628351 0.000000 0.596429
0.791470 0.000000 0.648859
0.980194 0.000000 0.701930
0.000000 0.204776 0.578851
0.000000 0.202274 0.579217
0.000000 0.191470 0.581048
0.244694 0.168551 0.584802
0.388067 0.127199 0.590997
0.521752 0.003937 0.597528
0.638087 0.000000 0.606226
0.803189 0.000000 0.657465
0.986450 0.000000 0.706325
0.000000 0.301396 0.595911
0.000000 0.299382 0.596277
0.000000 0.291264 0.597955
0.220829 0.275364 0.601678
0.379522 0.251041 0.608606
0.529717 0.225162 0.616876
0.656214 0.209506 0.624598
0.824277 0.235355 0.673915
0.995941 0.275700 0.714199
0.000000 0.427741 0.620783
0.000000 0.427100 0.621241
0.000000 0.423499 0.623011
0.212558 0.412543 0.626246
0.370184 0.392370 0.631769
0.536034 0.371374 0.642664
0.681086 0.366217 0.650813
0.850065 0.420325 0.698116
1.000000 0.441382 0.721889
0.000000 0.554589 0.648127
0.000000 0.555077 0.648798
0.000000 0.557092 0.651728
0.256779 0.561120 0.657282
0.411322 0.565698 0.665156
0.551141 0.555810 0.674586
0.712123 0.552178 0.687556
0.875547 0.598901 0.728481
1.000000 0.579675 0.720577
0.000000 0.684779 0.672236
0.000000 0.685481 0.672969
0.000000 0.688472 0.676112
0.194949 0.694820 0.682918
0.416358 0.706111 0.695155
0.593835 0.725856 0.716518
0.770260 0.762875 0.755764
0.890196 0.754574 0.748562
1.000000 0.750881 0.746120
0.000000 0.852537 0.693416
0.000000 0.853025 0.693904
0.000000 0.855100 0.696223
0.000000 0.859190 0.701869
0.414588 0.865599 0.714199
0.636866 0.875395 0.743343
0.811795 0.888487 0.793301
0.916411 0.898161 0.790585
1.000000 0.905364 0.821714
0.000000 1.000000 0.729854
0.000000 1.000000 0.731014
0.242130 1.000000 0.736202
0.427649 1.000000 0.747951
0.594415 0.997498 0.770382
0.746456 0.993500 0.806302
0.853727 0.990204 0.834745
0.930144 0.990509 0.839078
1.000000 0.993591 0.821347
0.000000 0.148775 0.729152
0.000000 0.144045 0.729244
0.000000 0.120516 0.729702
0.249821 0.000000 0.730709
0.402258 0.000000 0.732479
0.542779 0.000000 0.734951
0.671443 0.000000 0.736385
0.788510 0.000000 0.743526
0.945159 0.000000 0.786313
0.000000 0.165225 0.730282
0.000000 0.160983 0.730404
0.000000 0.140963 0.730831
0.243503 0.077882 0.731899
0.398901 0.000000 0.733730
0.541436 0.000000 0.736324
0.671839 0.000000 0.737789
0.789731 0.000000 0.744778
0.946838 0.000000 0.787503
0.000000 0.223056 0.734920
0.000000 0.219821 0.735042
0.000000 0.205661 0.735531
0.216709 0.173098 0.736629
0.385870 0.099184 0.738796
0.536065 0.000000 0.741817
0.673457 0.000000 0.743526
0.794980 0.000000 0.749905
0.953826 0.000000 0.792355
0.000000 0.313512 0.743679
0.000000 0.311070 0.743771
0.000000 0.300450 0.744137
0.157046 0.277653 0.745144
0.360571 0.238834 0.747555
0.524712 0.179416 0.751431
0.675776 0.079347 0.754177
0.804868 0.000000 0.759670
0.967132 0.034028 0.801877
0.000000 0.434638 0.757046
0.000000 0.432593 0.757107
0.000000 0.423316 0.757290
0.000000 0.403418 0.757717
0.321324 0.372900 0.759243
0.502647 0.331121 0.763760
0.675898 0.290898 0.769009
0.818662 0.275822 0.773861
0.984100 0.350713 0.816251
0.000000 0.567407 0.774166
0.000000 0.566796 0.774289
0.000000 0.563867 0.774746
0.000000 0.556359 0.775357
0.311315 0.537072 0.775967
0.482368 0.503227 0.778012
0.670588 0.470008 0.785916
0.833341 0.463752 0.791806
1.000000 0.546227 0.836332
0.000000 0.694545 0.791501
0.000000 0.694636 0.791775
0.000000 0.695064 0.792905
0.047852 0.695888 0.795163
0.359533 0.696712 0.798764
0.520836 0.694606 0.803098
0.669673 0.672297 0.807492
0.850706 0.664363 0.818692
1.000000 0.731350 0.861906
0.000000 0.830106 0.812741
0.000000 0.830320 0.813016
0.000000 0.831235 0.814206
0.000000 0.833219 0.816739
0.290166 0.836698 0.821317
0.520989 0.843076 0.829557
0.715389 0.856748 0.846220
0.900053 0.893553 0.887327
1.000000 0.886778 0.881041
0.000000 1.000000 0.837858
0.000000 1.000000 0.837949
0.000000 1.000000 0.838407
0.000000 1.000000 0.839597
0.242283 1.000000 0.842832
0.556878 1.000000 0.851926
0.780545 1.000000 0.878264
0.932647 0.993835 0.922026
1.000000 0.995941 0.918395
0.000000 0.263523 0.938567
0.000000 0.259800 0.938659
0.095277 0.243015 0.939055
0.297398 0.203403 0.939940
0.446082 0.102602 0.941375
0.593774 0.000000 0.943206
0.742092 0.000000 0.944274
0.879057 0.000000 0.942504
1.000000 0.000000 0.943633
0.000000 0.276005 0.939147
0.000000 0.272374 0.939239
0.070741 0.256321 0.939635
0.293584 0.219303 0.940520
0.443458 0.134279 0.942016
0.591913 0.000000 0.943938
0.741238 0.000000 0.945159
0.879210 0.000000 0.943450
1.000000 0.000000 0.944457
0.000000 0.324285 0.941588
0.000000 0.321141 0.941680
0.000000 0.307347 0.942077
0.277562 0.276799 0.942962
0.432410 0.217899 0.944640
0.584009 0.020050 0.946960
0.737453 0.000000 0.948669
0.879911 0.000000 0.947295
1.000000 0.000000 0.947875
0.000000 0.407355 0.946227
0.000000 0.404852 0.946319
0.000000 0.393500 0.946685
0.247074 0.368872 0.947539
0.411475 0.325048 0.949340
0.568200 0.251804 0.952209
0.729000 0.101991 0.955108
0.880705 0.000000 0.954650
1.000000 0.000000 0.954559
0.000000 0.518822 0.953155
0.000000 0.516594 0.953246
0.000000 0.506981 0.953552
0.212375 0.487098 0.954223
0.383795 0.452277 0.955749
0.543969 0.397986 0.958923
0.713924 0.323644 0.963378
0.880034 0.238712 0.964904
1.000000 0.200320 0.963989
0.000000 0.645014 0.961486
0.000000 0.643763 0.961608
0.000000 0.638056 0.962097
0.189517 0.624567 0.962921
0.369451 0.597681 0.964111
0.517418 0.555810 0.966400
0.689631 0.497841 0.971618
0.874113 0.440833 0.976226
1.000000 0.425788 0.974914
0.000000 0.762661 0.969207
0.000000 0.762356 0.969360
0.000000 0.760800 0.970062
0.197330 0.756985 0.971374
0.374762 0.748562 0.973327
0.518883 0.726955 0.975463
0.663539 0.681331 0.978576
0.855222 0.629084 0.986419
1.000000 0.616907 0.986145
0.000000 0.874540 0.976654
0.000000 0.874540 0.976806
0.000000 0.874388 0.977417
0.000000 0.874052 0.978668
0.366522 0.873289 0.980682
0.537255 0.871763 0.983337
0.688991 0.867002 0.986481
0.833219 0.836912 0.990112
1.000000 0.817563 0.994995
0.000000 1.000000 0.990570
0.000000 1.000000 0.990661
0.000000 1.000000 0.990997
0.000000 1.000000 0.991669
0.207004 1.000000 0.992645
0.488899 1.000000 0.993957
0.683101 1.000000 0.995514
0.859007 1.000000 0.997314
1.000000 1.000000 1.000000
