GR3-N-V3 Plady.cube
TITLE "Generated by LUMIX Lab"
#LUMIXPHOTOSTYLE STD
LUT_3D_SIZE 33
DOMAIN_MIN 0.0 0.0 0.0
DOMAIN_MAX 1.0 1.0 1.0
0.000000 0.000000 0.000000
0.008515 0.001282 0.000000
0.044099 0.002838 0.001007
0.095888 0.009308 0.001007
0.129488 0.017914 0.000824
0.164340 0.028565 0.001465
0.199222 0.041016 0.001709
0.233860 0.060609 0.000000
0.268650 0.082551 0.000000
0.303868 0.094545 0.000000
0.338781 0.105135 0.000000
0.373999 0.115877 0.000000
0.409277 0.127169 0.000000
0.444282 0.138888 0.000000
0.479377 0.150240 0.000000
0.514244 0.162112 0.000000
0.548821 0.173861 0.000000
0.583429 0.185641 0.000000
0.617639 0.197604 0.000000
0.651545 0.209506 0.000000
0.685237 0.221439 0.000000
0.718624 0.233310 0.000000
0.751553 0.245090 0.000000
0.784390 0.256901 0.000000
0.816709 0.268864 0.000000
0.848508 0.280705 0.000000
0.879789 0.292607 0.000000
0.910430 0.304753 0.000000
0.940337 0.316777 0.002686
0.969451 0.329168 0.030030
0.997803 0.341466 0.061219
1.000000 0.354131 0.091859
1.000000 0.367193 0.109682
0.000092 0.007752 0.002319
0.007324 0.008057 0.002136
0.043214 0.009583 0.002380
0.096162 0.015839 0.003479
0.129671 0.024475 0.003296
0.164797 0.034882 0.003937
0.199466 0.048524 0.004028
0.234257 0.067903 0.002045
0.269169 0.086976 0.000153
0.304082 0.097475 0.000000
0.339269 0.107179 0.000000
0.374548 0.118166 0.000000
0.409766 0.129183 0.000000
0.444831 0.140383 0.000000
0.479835 0.151797 0.000000
0.514580 0.163546 0.000000
0.549248 0.175113 0.000000
0.583856 0.186923 0.000000
0.618036 0.198764 0.000000
0.651972 0.210544 0.000000
0.685603 0.222416 0.000000
0.718990 0.234195 0.000000
0.751919 0.245914 0.000000
0.784695 0.257816 0.000000
0.817014 0.269596 0.000000
0.848753 0.281529 0.000000
0.880064 0.293370 0.000000
0.910613 0.305394 0.000000
0.940551 0.317449 0.006622
0.969635 0.329747 0.032959
0.997955 0.342077 0.065126
1.000000 0.354742 0.093355
1.000000 0.367712 0.111177
0.000000 0.038911 0.013947
0.000427 0.038697 0.011658
0.035645 0.039277 0.009766
0.091676 0.047150 0.011872
0.128573 0.054902 0.012818
0.164645 0.064881 0.013397
0.200290 0.079927 0.014160
0.235538 0.090913 0.011841
0.270726 0.099275 0.008789
0.306126 0.107607 0.002594
0.341161 0.116701 0.000000
0.376349 0.126741 0.000000
0.411536 0.137209 0.000000
0.446632 0.147677 0.000000
0.481544 0.158511 0.000000
0.516442 0.169619 0.000000
0.550927 0.180819 0.000000
0.585473 0.192233 0.000000
0.619623 0.203738 0.000000
0.653498 0.215244 0.000000
0.687160 0.226719 0.000000
0.720455 0.238285 0.000000
0.753323 0.249821 0.000000
0.786038 0.261448 0.000000
0.818265 0.273167 0.000000
0.849943 0.284764 0.000000
0.881102 0.296574 0.000000
0.911559 0.308446 0.004242
0.941375 0.320317 0.024292
0.970397 0.332464 0.051789
0.998566 0.344671 0.081880
1.000000 0.357214 0.100557
1.000000 0.370092 0.116976
0.000000 0.092042 0.035554
0.000000 0.091402 0.032288
0.019074 0.091402 0.026215
0.089479 0.092653 0.026459
0.122072 0.096925 0.035126
0.161227 0.102907 0.033356
0.200168 0.107485 0.031617
0.237613 0.112764 0.028046
0.273808 0.119142 0.022370
0.309697 0.125917 0.015808
0.344976 0.133730 0.010163
0.380102 0.142428 0.005310
0.415290 0.151614 0.001160
0.450263 0.161410 0.000000
0.485176 0.171054 0.000000
0.519921 0.181521 0.000000
0.554467 0.191867 0.000000
0.588891 0.202609 0.000000
0.623041 0.213504 0.000000
0.656794 0.224369 0.000000
0.690394 0.235447 0.000000
0.723568 0.246647 0.000000
0.756374 0.257603 0.000000
0.788785 0.268803 0.000000
0.820859 0.280003 0.000000
0.852262 0.291386 0.009033
0.883207 0.302800 0.021485
0.913481 0.314427 0.038087
0.943084 0.326024 0.059297
0.971862 0.337987 0.084962
0.999786 0.349920 0.099092
1.000000 0.362249 0.112520
1.000000 0.374792 0.127230
0.000000 0.122286 0.070253
0.000000 0.121889 0.068116
0.010071 0.121462 0.060121
0.068086 0.122103 0.050721
0.120333 0.124453 0.054749
0.153292 0.128908 0.066041
0.193637 0.136080 0.058656
0.236210 0.140902 0.049165
0.276127 0.145388 0.041718
0.313573 0.151003 0.038788
0.349828 0.157382 0.035859
0.385473 0.164523 0.033845
0.420844 0.172488 0.032410
0.455940 0.180941 0.030610
0.490883 0.189731 0.028382
0.525597 0.198886 0.027832
0.560113 0.208530 0.026612
0.594324 0.218296 0.028351
0.628443 0.228183 0.027253
0.662104 0.238560 0.028717
0.695521 0.248600 0.029114
0.728542 0.259098 0.031891
0.761288 0.269718 0.035279
0.793301 0.280247 0.041108
0.824979 0.290867 0.049805
0.856107 0.301671 0.059358
0.886656 0.312657 0.075257
0.916533 0.323796 0.088075
0.945739 0.335027 0.097047
0.974243 0.346502 0.106996
1.000000 0.358221 0.117586
1.000000 0.370184 0.129610
1.000000 0.382452 0.142458
0.000000 0.152499 0.095003
0.000000 0.152193 0.093874
0.000000 0.151614 0.090120
0.032197 0.151217 0.081422
0.105257 0.153017 0.074220
0.151186 0.156527 0.080018
0.186679 0.161044 0.088594
0.226627 0.169375 0.085542
0.270787 0.176089 0.078706
0.313848 0.181186 0.074037
0.353643 0.186587 0.073976
0.391119 0.192142 0.075685
0.427466 0.198886 0.078584
0.463111 0.205966 0.079103
0.498421 0.213596 0.079988
0.533227 0.221744 0.081239
0.567803 0.230350 0.082734
0.602106 0.239170 0.083284
0.636042 0.248142 0.085023
0.669642 0.257298 0.085786
0.702937 0.266789 0.088075
0.735683 0.276249 0.089540
0.768154 0.285985 0.091585
0.799649 0.295781 0.094148
0.830777 0.305791 0.098329
0.861357 0.315953 0.102876
0.891417 0.326329 0.108125
0.920806 0.336706 0.114290
0.949584 0.347539 0.121614
0.977600 0.358434 0.129427
1.000000 0.369726 0.138979
1.000000 0.381262 0.149783
1.000000 0.393072 0.161349
0.000000 0.182559 0.111757
0.000000 0.182528 0.110780
0.000000 0.181918 0.106905
0.000000 0.180972 0.100984
0.082704 0.181582 0.094148
0.135073 0.184909 0.090852
0.183108 0.189792 0.095247
0.221653 0.194980 0.101564
0.260960 0.203494 0.103212
0.305394 0.212192 0.101411
0.350042 0.218845 0.100435
0.392889 0.224247 0.101442
0.432624 0.229862 0.103639
0.470283 0.236027 0.105745
0.506676 0.242527 0.107820
0.542412 0.249546 0.109346
0.577417 0.256962 0.110719
0.611719 0.264744 0.112642
0.645747 0.272465 0.113893
0.679408 0.280858 0.115114
0.712459 0.289372 0.116640
0.745083 0.298009 0.118044
0.777035 0.306706 0.120363
0.807828 0.315557 0.123018
0.838285 0.324651 0.126284
0.868315 0.334081 0.130098
0.897704 0.343633 0.135042
0.926452 0.353399 0.140627
0.954528 0.363561 0.147158
0.981872 0.373816 0.154360
1.000000 0.384527 0.162966
1.000000 0.395453 0.172427
1.000000 0.406683 0.182773
0.000000 0.213230 0.129641
0.000000 0.213199 0.128847
0.000000 0.212711 0.126009
0.000000 0.211978 0.121096
0.033661 0.211521 0.113802
0.115236 0.213291 0.106905
0.167025 0.217929 0.105409
0.216159 0.224155 0.110231
0.257633 0.230442 0.117983
0.296117 0.238956 0.123140
0.340490 0.248783 0.123537
0.385901 0.256840 0.123415
0.430701 0.263523 0.125216
0.473732 0.269444 0.128267
0.513329 0.275395 0.131472
0.551019 0.281498 0.133913
0.587304 0.287938 0.136782
0.622736 0.294652 0.138338
0.657069 0.301549 0.140383
0.690913 0.308782 0.141878
0.724025 0.316258 0.143740
0.756588 0.323857 0.145357
0.787716 0.331518 0.147585
0.817838 0.339239 0.150149
0.847471 0.347417 0.153750
0.876707 0.355901 0.157595
0.905303 0.364599 0.162264
0.933257 0.373632 0.167453
0.960571 0.382940 0.173617
0.987091 0.392523 0.180484
1.000000 0.402533 0.188540
1.000000 0.412818 0.197299
1.000000 0.423438 0.207004
0.000000 0.244053 0.148348
0.000000 0.243900 0.147707
0.000000 0.243412 0.144961
0.000000 0.242649 0.140963
0.000000 0.242039 0.134554
0.093477 0.242313 0.127352
0.147066 0.245487 0.122011
0.199771 0.251591 0.121736
0.250340 0.259312 0.127932
0.294255 0.267002 0.136538
0.332494 0.275639 0.144808
0.376165 0.286015 0.147219
0.421942 0.295262 0.148501
0.467720 0.303166 0.150362
0.513054 0.310185 0.154116
0.555718 0.316320 0.157534
0.595209 0.322362 0.161288
0.632654 0.328344 0.163973
0.668482 0.334478 0.166506
0.703182 0.340734 0.168490
0.736812 0.347112 0.170535
0.769253 0.353613 0.172122
0.799771 0.360052 0.174868
0.829191 0.366796 0.177951
0.858061 0.373907 0.181430
0.886381 0.381292 0.185458
0.914061 0.389166 0.190188
0.941192 0.397192 0.195132
0.967498 0.405737 0.201389
0.993103 0.414557 0.208072
1.000000 0.423682 0.215640
1.000000 0.433326 0.224155
1.000000 0.443275 0.233371
0.000000 0.274571 0.167208
0.000000 0.274540 0.166842
0.000000 0.274083 0.164706
0.000000 0.273411 0.160830
0.000000 0.272709 0.155581
0.045869 0.272313 0.148379
0.127291 0.273808 0.141512
0.180209 0.278447 0.137514
0.233310 0.285985 0.139712
0.285222 0.295171 0.147127
0.331151 0.304204 0.157321
0.369482 0.313024 0.167697
0.412665 0.323705 0.172519
0.458442 0.333989 0.174563
0.504936 0.343023 0.176822
0.551354 0.350896 0.179934
0.596765 0.358007 0.184390
0.638575 0.364324 0.188327
0.677577 0.370214 0.191775
0.714412 0.375799 0.194491
0.749416 0.381384 0.196750
0.782040 0.386816 0.199313
0.812161 0.392035 0.202365
0.841093 0.397620 0.205814
0.869261 0.403693 0.209689
0.896757 0.410071 0.214176
0.923583 0.416876 0.218967
0.949706 0.424079 0.224369
0.975067 0.431708 0.230503
0.999634 0.439673 0.237095
1.000000 0.448066 0.244541
1.000000 0.456764 0.252598
1.000000 0.465919 0.261662
0.000000 0.304967 0.185977
0.000000 0.304967 0.185672
0.000000 0.304662 0.184146
0.000000 0.303990 0.180697
0.000000 0.303197 0.175814
0.000000 0.302525 0.169558
0.105928 0.302892 0.162234
0.160128 0.305821 0.156222
0.213779 0.311803 0.154513
0.267521 0.320714 0.158602
0.320378 0.331243 0.167880
0.368109 0.341650 0.179568
0.407507 0.350988 0.191135
0.449805 0.361913 0.197940
0.495552 0.372992 0.201389
0.542321 0.382910 0.203952
0.589227 0.391730 0.206668
0.635767 0.399664 0.210727
0.680568 0.406561 0.215457
0.721584 0.412634 0.219272
0.759121 0.417884 0.222690
0.792874 0.422400 0.226047
0.823392 0.426734 0.229984
0.852354 0.431281 0.234073
0.880278 0.436255 0.238651
0.907195 0.441779 0.243534
0.933257 0.447517 0.248661
0.958465 0.453864 0.254612
0.982849 0.460578 0.260807
1.000000 0.467597 0.267613
1.000000 0.475135 0.274968
1.000000 0.482979 0.283055
1.000000 0.491279 0.291691
0.000000 0.334874 0.204959
0.000000 0.334783 0.204562
0.000000 0.334478 0.202853
0.000000 0.333928 0.200107
0.000000 0.333135 0.195651
0.000000 0.332433 0.190188
0.072847 0.332067 0.183322
0.140078 0.333471 0.176425
0.193240 0.337774 0.172152
0.246952 0.345281 0.172305
0.302037 0.355627 0.178500
0.355840 0.367468 0.189090
0.404883 0.379309 0.201877
0.445838 0.389410 0.215305
0.487495 0.400549 0.223728
0.532921 0.412146 0.228214
0.579889 0.422827 0.231266
0.627131 0.432380 0.233890
0.674037 0.440833 0.237369
0.720302 0.448463 0.241733
0.762722 0.454688 0.246891
0.799405 0.459327 0.252049
0.831693 0.463081 0.257115
0.861723 0.467018 0.262364
0.889860 0.471199 0.267796
0.916686 0.475715 0.273228
0.942199 0.480720 0.279332
0.966796 0.486061 0.285527
0.990234 0.491829 0.292210
1.000000 0.498054 0.299351
1.000000 0.504570 0.306859
1.000000 0.511620 0.314916
1.000000 0.519097 0.323491
0.000000 0.364019 0.223362
0.000000 0.363958 0.223026
0.000000 0.363592 0.221622
0.000000 0.363134 0.219089
0.000000 0.362463 0.215152
0.000000 0.361608 0.209934
0.004791 0.361059 0.203952
0.118715 0.361273 0.196750
0.173312 0.363958 0.191073
0.226291 0.369726 0.188266
0.280735 0.378790 0.190860
0.336248 0.390661 0.198672
0.391211 0.403906 0.210910
0.441993 0.417060 0.225040
0.484840 0.428260 0.239475
0.525780 0.439490 0.249485
0.570794 0.451453 0.254887
0.617487 0.462715 0.258244
0.664759 0.472786 0.261082
0.711849 0.481727 0.264103
0.756954 0.489174 0.268589
0.798306 0.495125 0.275242
0.834653 0.499489 0.282292
0.867063 0.503380 0.289250
0.896605 0.507225 0.295995
0.924010 0.511162 0.302983
0.949615 0.515435 0.310002
0.973785 0.520043 0.317113
0.996674 0.525017 0.324407
1.000000 0.530419 0.332036
1.000000 0.536156 0.339818
1.000000 0.542321 0.348150
1.000000 0.548943 0.356786
0.000000 0.392493 0.241398
0.000000 0.392432 0.241276
0.000000 0.392187 0.240024
0.000000 0.391730 0.237797
0.000000 0.391089 0.234165
0.000000 0.390326 0.229557
0.000000 0.389502 0.223789
0.094697 0.389166 0.217197
0.154208 0.390387 0.210575
0.206271 0.394507 0.206119
0.259464 0.401831 0.205203
0.314336 0.412421 0.209659
0.370977 0.425696 0.219486
0.426856 0.440406 0.232914
0.479225 0.454780 0.248112
0.523980 0.467292 0.263279
0.564416 0.478462 0.274693
0.608759 0.490608 0.281254
0.655146 0.502251 0.285222
0.702205 0.512779 0.288426
0.747738 0.521386 0.291814
0.790005 0.528099 0.297002
0.829435 0.533593 0.304204
0.866270 0.538659 0.313451
0.898711 0.542931 0.322454
0.927764 0.546899 0.331182
0.954223 0.550835 0.339635
0.978607 0.555016 0.348180
1.000000 0.559350 0.356634
1.000000 0.564080 0.365026
1.000000 0.569116 0.373510
1.000000 0.574578 0.382238
1.000000 0.580438 0.391058
0.000000 0.420356 0.259220
0.000000 0.420325 0.258946
0.000000 0.420081 0.258000
0.000000 0.419684 0.255955
0.000000 0.419043 0.252720
0.000000 0.418311 0.248386
0.000000 0.417487 0.243168
0.037812 0.416876 0.237003
0.133944 0.417060 0.230350
0.186984 0.419532 0.224613
0.238773 0.425055 0.221714
0.292332 0.434028 0.222843
0.348211 0.446204 0.228977
0.405646 0.460853 0.240238
0.462562 0.476814 0.254978
0.516075 0.492500 0.271153
0.562799 0.506096 0.287022
0.603235 0.517449 0.299657
0.646845 0.529625 0.307347
0.692561 0.541436 0.312108
0.737575 0.551385 0.316197
0.780117 0.559167 0.320714
0.820432 0.565515 0.326726
0.858457 0.571160 0.334661
0.894163 0.576471 0.344915
0.926452 0.581353 0.356390
0.955016 0.585687 0.367376
0.980346 0.589776 0.377722
1.000000 0.593927 0.387701
1.000000 0.598291 0.397467
1.000000 0.602808 0.407019
1.000000 0.607721 0.416480
1.000000 0.612940 0.425818
0.000000 0.447608 0.276463
0.000000 0.447578 0.276280
0.000000 0.447364 0.275395
0.000000 0.446998 0.273472
0.000000 0.446418 0.270634
0.000000 0.445716 0.266789
0.000000 0.444862 0.261814
0.000000 0.444160 0.256321
0.111055 0.443793 0.249760
0.167849 0.444892 0.243412
0.218967 0.448676 0.238743
0.270909 0.455756 0.237430
0.325170 0.466255 0.240360
0.381903 0.479866 0.248295
0.440253 0.495949 0.260838
0.498116 0.513085 0.276677
0.552880 0.529961 0.293828
0.601190 0.544640 0.310613
0.641901 0.556237 0.324346
0.684535 0.568170 0.333318
0.727718 0.578973 0.339391
0.769863 0.587915 0.344854
0.810452 0.595453 0.350622
0.848997 0.601953 0.357855
0.885405 0.607721 0.366857
0.919219 0.613031 0.377783
0.950439 0.618250 0.390753
0.978119 0.623133 0.404059
1.000000 0.627588 0.416571
1.000000 0.631952 0.428260
1.000000 0.636316 0.439399
1.000000 0.640925 0.450019
1.000000 0.645747 0.460273
0.000000 0.474342 0.293431
0.000000 0.474281 0.293278
0.000000 0.474128 0.292454
0.000000 0.473762 0.290776
0.000000 0.473243 0.288151
0.000000 0.472511 0.284581
0.000000 0.471717 0.279973
0.000000 0.470954 0.274846
0.076905 0.470375 0.268711
0.148226 0.470497 0.262058
0.199893 0.472755 0.256504
0.250706 0.478004 0.253269
0.303044 0.486549 0.253483
0.357946 0.498543 0.258061
0.415595 0.513634 0.267582
0.474861 0.530907 0.281498
0.533471 0.549218 0.298314
0.589319 0.567041 0.316381
0.639063 0.582696 0.333989
0.679744 0.594141 0.349126
0.719661 0.604700 0.359686
0.760250 0.614496 0.367498
0.800290 0.623255 0.374640
0.839017 0.630823 0.381994
0.875700 0.637324 0.390387
0.910033 0.643091 0.400427
0.941833 0.648402 0.412207
0.971069 0.653620 0.425879
0.997559 0.658961 0.441016
1.000000 0.663966 0.455818
1.000000 0.668696 0.469245
1.000000 0.673335 0.481666
1.000000 0.678065 0.493385
0.000000 0.500511 0.310124
0.000000 0.500481 0.309972
0.000000 0.500267 0.309087
0.000000 0.500008 0.307652
0.000000 0.499489 0.305180
0.000000 0.498817 0.301884
0.000000 0.498024 0.297673
0.000000 0.497230 0.292668
0.000000 0.496559 0.287205
0.126223 0.496132 0.280644
0.181552 0.497139 0.274479
0.231296 0.500725 0.269871
0.282017 0.507378 0.267979
0.334905 0.517479 0.269718
0.390753 0.530938 0.276097
0.449287 0.547326 0.286992
0.509209 0.565698 0.302159
0.568627 0.584924 0.319982
0.625208 0.603479 0.338994
0.674952 0.618982 0.357733
0.714900 0.629847 0.374517
0.752682 0.639612 0.387091
0.791135 0.649073 0.396979
0.829099 0.657527 0.405676
0.865599 0.664973 0.414649
0.900084 0.671382 0.424323
0.932189 0.677150 0.435462
0.961883 0.682460 0.448096
0.989075 0.687709 0.462348
1.000000 0.693141 0.478187
1.000000 0.698726 0.494728
1.000000 0.703883 0.509789
1.000000 0.708797 0.523125
0.000000 0.526207 0.326360
0.000000 0.526177 0.326207
0.000000 0.526055 0.325597
0.000000 0.525750 0.324132
0.000000 0.525261 0.321965
0.000000 0.524590 0.318791
0.000000 0.523888 0.314946
0.000000 0.523064 0.310277
0.000000 0.522332 0.305058
0.099367 0.521782 0.299138
0.162295 0.521782 0.292607
0.212833 0.523949 0.287144
0.262455 0.528771 0.283513
0.313359 0.536889 0.283085
0.367010 0.548425 0.286473
0.423499 0.563226 0.294285
0.482826 0.580774 0.306737
0.543420 0.600183 0.322972
0.603449 0.620142 0.341894
0.659602 0.638361 0.362280
0.708858 0.653529 0.382666
0.748440 0.664332 0.401007
0.784146 0.673426 0.415747
0.820371 0.682399 0.427466
0.855894 0.690547 0.438087
0.889921 0.697749 0.448554
0.922057 0.704097 0.459663
0.951934 0.709834 0.471778
0.979461 0.715175 0.485145
1.000000 0.720424 0.499825
1.000000 0.725826 0.515709
1.000000 0.731472 0.532128
1.000000 0.736812 0.547631
0.000000 0.551904 0.342473
0.000000 0.551904 0.342351
0.000000 0.551751 0.341772
0.000000 0.551476 0.340429
0.000000 0.551049 0.338445
0.000000 0.550439 0.335576
0.000000 0.549737 0.331945
0.000000 0.548943 0.327611
0.000000 0.548150 0.322606
0.031098 0.547509 0.317082
0.140810 0.547082 0.310704
0.194461 0.547967 0.304570
0.243839 0.551324 0.299931
0.293126 0.557610 0.297642
0.344823 0.567254 0.298619
0.399329 0.580194 0.303563
0.457008 0.596368 0.312963
0.517144 0.615167 0.326757
0.578210 0.635126 0.344396
0.637751 0.654566 0.365087
0.692866 0.672145 0.386969
0.741238 0.686793 0.408942
0.780148 0.697444 0.428962
0.813748 0.705989 0.445808
0.847501 0.714351 0.459388
0.880400 0.722103 0.471717
0.911986 0.729091 0.483711
0.941680 0.735348 0.495949
0.969268 0.741024 0.508934
0.994629 0.746426 0.522820
1.000000 0.751644 0.537224
1.000000 0.756741 0.551904
1.000000 0.761868 0.566918
0.000000 0.578485 0.358801
0.000000 0.578454 0.358618
0.000000 0.578302 0.357946
0.000000 0.578058 0.356786
0.000000 0.577630 0.354894
0.000000 0.577111 0.352178
0.000000 0.576410 0.348882
0.000000 0.575616 0.344671
0.000000 0.574853 0.339940
0.000000 0.574121 0.334600
0.112154 0.573571 0.328679
0.173892 0.573510 0.322179
0.224430 0.575525 0.316625
0.273686 0.580194 0.313054
0.323919 0.587976 0.312047
0.376715 0.599054 0.314549
0.432654 0.613489 0.321172
0.491493 0.630793 0.332219
0.551934 0.649775 0.347875
0.612818 0.669215 0.367468
0.671229 0.687892 0.389776
0.724910 0.704646 0.413245
0.771908 0.718654 0.436835
0.809751 0.729091 0.458503
0.841245 0.736995 0.477180
0.872313 0.744808 0.492683
0.902678 0.752193 0.506432
0.931670 0.758938 0.519615
0.958953 0.765103 0.532738
0.984405 0.770718 0.545830
1.000000 0.775875 0.559045
1.000000 0.780789 0.572473
1.000000 0.785519 0.585962
0.000000 0.606073 0.375036
0.000000 0.606012 0.374853
0.000000 0.605890 0.374304
0.000000 0.605646 0.373205
0.000000 0.605249 0.371374
0.000000 0.604700 0.368902
0.000000 0.604059 0.365667
0.000000 0.603296 0.361700
0.000000 0.602502 0.357183
0.000000 0.601740 0.351965
0.032044 0.601099 0.346380
0.147951 0.600702 0.340002
0.203464 0.601526 0.333776
0.253971 0.604639 0.329046
0.303716 0.610651 0.326482
0.355352 0.619959 0.326909
0.409674 0.632319 0.330999
0.466773 0.647578 0.339574
0.526238 0.664942 0.352880
0.586816 0.683558 0.370672
0.646632 0.702296 0.392126
0.703609 0.720027 0.416083
0.755550 0.735775 0.441138
0.800504 0.748959 0.466163
0.836912 0.758999 0.489540
0.866453 0.766415 0.509728
0.894896 0.773709 0.526696
0.922667 0.780697 0.541650
0.949310 0.787167 0.555230
0.974517 0.793057 0.568109
0.998138 0.798367 0.580682
1.000000 0.803311 0.593133
1.000000 0.807858 0.605493
0.000000 0.634699 0.391455
0.000000 0.634638 0.391333
0.000000 0.634516 0.390814
0.000000 0.634302 0.389685
0.000000 0.633936 0.387945
0.000000 0.633417 0.385687
0.000000 0.632807 0.382483
0.000000 0.632074 0.378759
0.000000 0.631250 0.374304
0.000000 0.630488 0.369329
0.000000 0.629755 0.363836
0.109285 0.629236 0.357824
0.178164 0.629236 0.351232
0.232181 0.631037 0.345617
0.283330 0.635401 0.341863
0.334722 0.642542 0.340551
0.387915 0.652705 0.342657
0.443549 0.665736 0.348974
0.501549 0.681178 0.359808
0.561242 0.698329 0.375433
0.621210 0.716304 0.395300
0.679774 0.734096 0.418585
0.734890 0.750729 0.444190
0.784482 0.765377 0.470619
0.827176 0.777615 0.496956
0.861906 0.787167 0.521538
0.889403 0.794186 0.542901
0.915435 0.800931 0.560510
0.940856 0.807462 0.575525
0.965393 0.813535 0.588891
0.988678 0.819120 0.601465
1.000000 0.824155 0.613397
1.000000 0.828763 0.625025
0.000000 0.663569 0.408331
0.000000 0.663539 0.408179
0.000000 0.663416 0.407752
0.000000 0.663203 0.406683
0.000000 0.662867 0.405066
0.000000 0.662379 0.402747
0.000000 0.661799 0.399817
0.000000 0.661067 0.396155
0.000000 0.660273 0.391913
0.000000 0.659480 0.387060
0.000000 0.658747 0.381781
0.000000 0.658137 0.375982
0.148257 0.657740 0.369482
0.209476 0.658442 0.363134
0.262882 0.661219 0.358312
0.314611 0.666529 0.355718
0.367285 0.674617 0.356146
0.421698 0.685451 0.360235
0.478309 0.698787 0.368780
0.536736 0.714137 0.381964
0.596216 0.730831 0.399847
0.655268 0.747982 0.421790
0.711971 0.764614 0.446906
0.764706 0.779965 0.473976
0.811673 0.793362 0.501549
0.851957 0.804654 0.528801
0.884581 0.813565 0.553979
0.910460 0.820218 0.575280
0.934325 0.826383 0.592737
0.957610 0.832425 0.607599
0.980163 0.838132 0.620722
1.000000 0.843320 0.632685
1.000000 0.848020 0.644007
0.000000 0.692592 0.425818
0.000000 0.692561 0.425666
0.000000 0.692439 0.425147
0.000000 0.692226 0.424262
0.000000 0.691920 0.422614
0.000000 0.691463 0.420508
0.000000 0.690883 0.417731
0.000000 0.690181 0.414252
0.000000 0.689418 0.410193
0.000000 0.688655 0.405432
0.000000 0.687861 0.400305
0.000000 0.687160 0.394690
0.109468 0.686702 0.388464
0.185092 0.686641 0.381842
0.242252 0.688136 0.376135
0.295262 0.691829 0.372381
0.347814 0.698024 0.371283
0.401556 0.706783 0.373602
0.456977 0.718013 0.379919
0.514122 0.731411 0.390814
0.572503 0.746426 0.406531
0.631159 0.762325 0.426581
0.688624 0.778317 0.450538
0.743038 0.793606 0.477180
0.792966 0.807553 0.505272
0.837125 0.819730 0.533654
0.874754 0.830014 0.560784
0.905547 0.838346 0.585290
0.929900 0.844541 0.606134
0.951629 0.850187 0.623407
0.972992 0.855741 0.637842
0.993652 0.860960 0.650599
1.000000 0.865751 0.661982
0.000000 0.721889 0.444129
0.000000 0.721889 0.444038
0.000000 0.721736 0.443549
0.000000 0.721584 0.442634
0.000000 0.721248 0.441138
0.000000 0.720821 0.439124
0.000000 0.720241 0.436469
0.000000 0.719600 0.433173
0.000000 0.718868 0.429236
0.000000 0.718074 0.424750
0.000000 0.717281 0.419806
0.000000 0.716548 0.414343
0.010529 0.715969 0.408423
0.160739 0.715602 0.401831
0.222812 0.716152 0.395575
0.277256 0.718441 0.390784
0.330175 0.722988 0.388373
0.383246 0.729824 0.389014
0.437629 0.739010 0.393408
0.493507 0.750332 0.402045
0.550744 0.763455 0.415473
0.608606 0.777798 0.433478
0.665888 0.792630 0.455695
0.721096 0.807248 0.481331
0.772824 0.821073 0.509117
0.819821 0.833585 0.537804
0.861021 0.844572 0.565606
0.896025 0.853849 0.591577
0.924834 0.861479 0.615229
0.947723 0.867277 0.635462
0.967620 0.872343 0.652277
0.987091 0.877379 0.666438
1.000000 0.882078 0.678523
0.000000 0.751644 0.463691
0.000000 0.751583 0.463630
0.000000 0.751492 0.463203
0.000000 0.751339 0.462318
0.000000 0.751034 0.460975
0.000000 0.750576 0.458961
0.000000 0.750057 0.456489
0.000000 0.749447 0.453346
0.000000 0.748714 0.449622
0.000000 0.747921 0.445319
0.000000 0.747158 0.440558
0.000000 0.746395 0.435340
0.000000 0.745754 0.429755
0.138399 0.745296 0.423529
0.206729 0.745266 0.416938
0.262150 0.746395 0.411231
0.315038 0.749538 0.407813
0.367498 0.754665 0.406928
0.420844 0.761929 0.409552
0.475593 0.771237 0.416114
0.531487 0.782315 0.427314
0.588312 0.794797 0.443061
0.644892 0.808072 0.463264
0.700282 0.821592 0.487312
0.752895 0.834775 0.514122
0.801541 0.847105 0.542168
