GR3-HiBW Plady.cube
TITLE "Generated by LUMIX Lab"
#LUMIXPHOTOSTYLE MONO
LUT_3D_SIZE 33
DOMAIN_MIN 0.0 0.0 0.0
DOMAIN_MAX 1.0 1.0 1.0
0.000000 0.000000 0.000000
0.000000 0.000000 0.000000
0.000000 0.000000 0.000000
0.000000 0.000000 0.000000
0.000000 0.000000 0.000000
0.000000 0.000000 0.000000
0.000000 0.000000 0.000000
0.000000 0.000000 0.000000
0.000000 0.000000 0.000000
0.000000 0.000000 0.000000
0.000000 0.000000 0.000000
0.000000 0.000000 0.000000
0.000000 0.000000 0.000000
0.008789 0.008789 0.008789
0.087861 0.087861 0.087861
0.120302 0.120302 0.120302
0.152285 0.152285 0.152285
0.184115 0.184115 0.184115
0.215885 0.215885 0.215885
0.247166 0.247166 0.247166
0.278477 0.278477 0.278477
0.309636 0.309636 0.309636
0.340612 0.340612 0.340612
0.371923 0.371923 0.371923
0.404211 0.404211 0.404211
0.437903 0.437903 0.437903
0.472938 0.472908 0.472908
0.509575 0.509575 0.509575
0.548089 0.548089 0.548089
0.588739 0.588739 0.588739
0.630396 0.630396 0.630396
0.672847 0.672847 0.672847
0.716182 0.716182 0.716182
0.000000 0.000000 0.000000
0.000000 0.000000 0.000000
0.000000 0.000000 0.000000
0.000000 0.000000 0.000000
0.000000 0.000000 0.000000
0.000000 0.000000 0.000000
0.000000 0.000000 0.000000
0.000000 0.000000 0.000000
0.000000 0.000000 0.000000
0.000000 0.000000 0.000000
0.000000 0.000000 0.000000
0.000000 0.000000 0.000000
0.000000 0.000000 0.000000
0.010742 0.010742 0.010742
0.088594 0.088594 0.088594
0.120790 0.120790 0.120790
0.152804 0.152804 0.152804
0.184512 0.184512 0.184512
0.216190 0.216190 0.216190
0.247532 0.247532 0.247532
0.278782 0.278782 0.278782
0.309880 0.309880 0.309880
0.340826 0.340826 0.340826
0.372107 0.372107 0.372107
0.404486 0.404486 0.404486
0.438087 0.438087 0.438087
0.473152 0.473152 0.473152
0.509789 0.509789 0.509789
0.548302 0.548302 0.548302
0.588891 0.588891 0.588891
0.630579 0.630579 0.630579
0.672999 0.672999 0.672999
0.716335 0.716335 0.716335
0.000000 0.000000 0.000000
0.000000 0.000000 0.000000
0.000000 0.000000 0.000000
0.000000 0.000000 0.000000
0.000000 0.000000 0.000000
0.000000 0.000000 0.000000
0.000000 0.000000 0.000000
0.000000 0.000000 0.000000
0.000000 0.000000 0.000000
0.000000 0.000000 0.000000
0.000000 0.000000 0.000000
0.000000 0.000000 0.000000
0.000000 0.000000 0.000000
0.016602 0.016602 0.016602
0.090425 0.090425 0.090425
0.122713 0.122713 0.122713
0.154543 0.154543 0.154543
0.186130 0.186130 0.186130
0.217594 0.217594 0.217594
0.248783 0.248783 0.248783
0.280003 0.280003 0.280003
0.311009 0.311009 0.311009
0.341863 0.341863 0.341863
0.373114 0.373114 0.373114
0.405402 0.405402 0.405402
0.439002 0.439002 0.439002
0.473976 0.473976 0.473976
0.510643 0.510643 0.510643
0.549096 0.549096 0.549096
0.589685 0.589685 0.589685
0.631281 0.631281 0.631281
0.673671 0.673671 0.673671
0.716945 0.716945 0.716945
0.000000 0.000000 0.000000
0.000000 0.000000 0.000000
0.000000 0.000000 0.000000
0.000000 0.000000 0.000000
0.000000 0.000000 0.000000
0.000000 0.000000 0.000000
0.000000 0.000000 0.000000
0.000000 0.000000 0.000000
0.000000 0.000000 0.000000
0.000000 0.000000 0.000000
0.000000 0.000000 0.000000
0.000000 0.000000 0.000000
0.000000 0.000000 0.000000
0.029297 0.029297 0.029297
0.094697 0.094697 0.094697
0.126467 0.126467 0.126467
0.157809 0.157809 0.157809
0.189181 0.189181 0.189181
0.220371 0.220371 0.220371
0.251530 0.251530 0.251530
0.282414 0.282414 0.282414
0.313207 0.313207 0.313207
0.343969 0.343969 0.343969
0.375097 0.375097 0.375097
0.407263 0.407263 0.407263
0.440772 0.440772 0.440772
0.475715 0.475715 0.475715
0.512261 0.512261 0.512261
0.550713 0.550713 0.550713
0.591272 0.591272 0.591272
0.632746 0.632746 0.632746
0.675013 0.675013 0.675013
0.718196 0.718196 0.718196
0.000000 0.000000 0.000000
0.000000 0.000000 0.000000
0.000000 0.000000 0.000000
0.000000 0.000000 0.000000
0.000000 0.000000 0.000000
0.000000 0.000000 0.000000
0.000000 0.000000 0.000000
0.000000 0.000000 0.000000
0.000000 0.000000 0.000000
0.000000 0.000000 0.000000
0.000000 0.000000 0.000000
0.000000 0.000000 0.000000
0.000000 0.000000 0.000000
0.045899 0.045899 0.045899
0.100618 0.100618 0.100618
0.132052 0.132052 0.132052
0.162905 0.162905 0.162905
0.193912 0.193912 0.193912
0.224735 0.224735 0.224735
0.255497 0.255497 0.255497
0.286107 0.286107 0.286107
0.316716 0.316716 0.316716
0.347234 0.347234 0.347234
0.378241 0.378241 0.378241
0.410315 0.410315 0.410315
0.443641 0.443641 0.443641
0.478462 0.478462 0.478462
0.514946 0.514946 0.514946
0.553338 0.553338 0.553338
0.593774 0.593774 0.593774
0.635126 0.635126 0.635126
0.677241 0.677241 0.677241
0.720272 0.720272 0.720272
0.000000 0.000000 0.000000
0.000000 0.000000 0.000000
0.000000 0.000000 0.000000
0.000000 0.000000 0.000000
0.000000 0.000000 0.000000
0.000000 0.000000 0.000000
0.000000 0.000000 0.000000
0.000000 0.000000 0.000000
0.000000 0.000000 0.000000
0.000000 0.000000 0.000000
0.000000 0.000000 0.000000
0.000000 0.000000 0.000000
0.000000 0.000000 0.000000
0.068360 0.068360 0.068360
0.108705 0.108705 0.108705
0.139315 0.139315 0.139315
0.169772 0.169772 0.169772
0.200198 0.200198 0.200198
0.230594 0.230594 0.230594
0.260899 0.260899 0.260899
0.291295 0.291295 0.291295
0.321569 0.321569 0.321569
0.351873 0.351873 0.351873
0.382544 0.382544 0.382544
0.414435 0.414435 0.414435
0.447669 0.447669 0.447669
0.482338 0.482338 0.482338
0.518669 0.518669 0.518669
0.556939 0.556939 0.556939
0.597192 0.597192 0.597192
0.638361 0.638361 0.638361
0.680323 0.680323 0.680323
0.723140 0.723140 0.723140
0.000000 0.000000 0.000000
0.000000 0.000000 0.000000
0.000000 0.000000 0.000000
0.000000 0.000000 0.000000
0.000000 0.000000 0.000000
0.000000 0.000000 0.000000
0.000000 0.000000 0.000000
0.000000 0.000000 0.000000
0.000000 0.000000 0.000000
0.000000 0.000000 0.000000
0.000000 0.000000 0.000000
0.000000 0.000000 0.000000
0.019532 0.019532 0.019532
0.088960 0.088960 0.088960
0.118563 0.118563 0.118563
0.148501 0.148501 0.148501
0.178286 0.178286 0.178286
0.208194 0.208194 0.208194
0.238041 0.238041 0.238041
0.268040 0.268040 0.268040
0.297917 0.297917 0.297917
0.327825 0.327825 0.327825
0.357794 0.357794 0.357794
0.388159 0.388159 0.388159
0.419837 0.419837 0.419837
0.452857 0.452857 0.452857
0.487373 0.487373 0.487373
0.523583 0.523583 0.523583
0.561761 0.561761 0.561761
0.601801 0.601801 0.601801
0.642695 0.642695 0.642695
0.684382 0.684382 0.684382
0.726894 0.726894 0.726894
0.000000 0.000000 0.000000
0.000000 0.000000 0.000000
0.000000 0.000000 0.000000
0.000000 0.000000 0.000000
0.000000 0.000000 0.000000
0.000000 0.000000 0.000000
0.000000 0.000000 0.000000
0.000000 0.000000 0.000000
0.000000 0.000000 0.000000
0.000000 0.000000 0.000000
0.000000 0.000000 0.000000
0.000000 0.000000 0.000000
0.059571 0.059571 0.059571
0.102480 0.102480 0.102480
0.131167 0.131167 0.131167
0.159792 0.159792 0.159792
0.188907 0.188907 0.188907
0.218021 0.218021 0.218021
0.247257 0.247257 0.247257
0.276646 0.276646 0.276646
0.306065 0.306065 0.306065
0.335576 0.335576 0.335576
0.365026 0.365026 0.365026
0.395148 0.395148 0.395148
0.426612 0.426612 0.426612
0.459388 0.459388 0.459388
0.493751 0.493751 0.493751
0.529778 0.529778 0.529778
0.567803 0.567803 0.567803
0.607507 0.607507 0.607507
0.648035 0.648035 0.648035
0.689387 0.689387 0.689387
0.731655 0.731655 0.731655
0.000000 0.000000 0.000000
0.000000 0.000000 0.000000
0.000000 0.000000 0.000000
0.000000 0.000000 0.000000
0.000000 0.000000 0.000000
0.000000 0.000000 0.000000
0.000000 0.000000 0.000000
0.000000 0.000000 0.000000
0.000000 0.000000 0.000000
0.002930 0.002930 0.002930
0.068360 0.068360 0.068360
0.092226 0.092226 0.092226
0.105806 0.105806 0.105806
0.123903 0.123903 0.123903
0.147951 0.147951 0.147951
0.174685 0.174685 0.174685
0.202365 0.202365 0.202365
0.230381 0.230381 0.230381
0.258732 0.258732 0.258732
0.287419 0.287419 0.287419
0.316075 0.316075 0.316075
0.344915 0.344915 0.344915
0.373968 0.373968 0.373968
0.403784 0.403784 0.403784
0.434882 0.434882 0.434882
0.467353 0.467353 0.467353
0.501488 0.501488 0.501488
0.537285 0.537285 0.537285
0.575158 0.575158 0.575158
0.614496 0.614496 0.614496
0.654566 0.654566 0.654566
0.695552 0.695552 0.695552
0.737423 0.737423 0.737423
0.000000 0.000000 0.000000
0.000000 0.000000 0.000000
0.000000 0.000000 0.000000
0.000000 0.000000 0.000000
0.000000 0.000000 0.000000
0.000000 0.000000 0.000000
0.000000 0.000000 0.000000
0.000000 0.000000 0.000000
0.000000 0.000000 0.000000
0.032227 0.032227 0.032227
0.111757 0.111757 0.111757
0.141695 0.141695 0.141695
0.155428 0.155428 0.155428
0.165438 0.165438 0.165438
0.178286 0.178286 0.178286
0.196292 0.196292 0.196292
0.220371 0.220371 0.220371
0.246433 0.246433 0.246433
0.273320 0.273320 0.273320
0.300725 0.300725 0.300725
0.328557 0.328557 0.328557
0.356542 0.356542 0.356542
0.384894 0.384894 0.384894
0.414160 0.414160 0.414160
0.444862 0.444862 0.444862
0.477058 0.477058 0.477058
0.510765 0.510765 0.510765
0.546410 0.546410 0.546410
0.583948 0.583948 0.583948
0.622766 0.622766 0.622766
0.662348 0.662348 0.662348
0.702846 0.702846 0.702846
0.744289 0.744289 0.744289
0.000000 0.000000 0.000000
0.000000 0.000000 0.000000
0.000000 0.000000 0.000000
0.000000 0.000000 0.000000
0.000000 0.000000 0.000000
0.000000 0.000000 0.000000
0.000000 0.000000 0.000000
0.000000 0.000000 0.000000
0.000000 0.000000 0.000000
0.041016 0.041016 0.041016
0.118318 0.118318 0.118318
0.172030 0.172030 0.172030
0.207401 0.207401 0.207401
0.222141 0.222141 0.222141
0.229679 0.229679 0.229679
0.237766 0.237766 0.237766
0.250095 0.250095 0.250095
0.268589 0.268589 0.268589
0.292576 0.292576 0.292576
0.318120 0.318120 0.318120
0.344366 0.344366 0.344366
0.371099 0.371099 0.371099
0.398444 0.398444 0.398444
0.426978 0.426978 0.426978
0.457069 0.457069 0.457069
0.488716 0.488716 0.488716
0.522057 0.522057 0.522057
0.557244 0.557244 0.557244
0.594446 0.594446 0.594446
0.632502 0.632502 0.632502
0.671565 0.671565 0.671565
0.711360 0.711360 0.711360
0.752346 0.752346 0.752346
0.000000 0.000000 0.000000
0.000000 0.000000 0.000000
0.000000 0.000000 0.000000
0.000000 0.000000 0.000000
0.000000 0.000000 0.000000
0.000000 0.000000 0.000000
0.000000 0.000000 0.000000
0.000000 0.000000 0.000000
0.000000 0.000000 0.000000
0.046876 0.046876 0.046876
0.115999 0.115999 0.115999
0.173678 0.173678 0.173678
0.233249 0.233249 0.233249
0.275273 0.275273 0.275273
0.292241 0.292241 0.292241
0.298314 0.298314 0.298314
0.302434 0.302434 0.302434
0.309483 0.309483 0.309483
0.321996 0.321996 0.321996
0.341070 0.341070 0.341070
0.364874 0.364874 0.364874
0.389624 0.389624 0.389624
0.415473 0.415473 0.415473
0.442847 0.442847 0.442847
0.472053 0.472053 0.472053
0.502892 0.502892 0.502892
0.535668 0.535668 0.535668
0.570367 0.570367 0.570367
0.606775 0.606775 0.606775
0.644068 0.644068 0.644068
0.682216 0.682216 0.682216
0.721431 0.721431 0.721431
0.761593 0.761593 0.761593
0.000000 0.000000 0.000000
0.000000 0.000000 0.000000
0.000000 0.000000 0.000000
0.000000 0.000000 0.000000
0.000000 0.000000 0.000000
0.000000 0.000000 0.000000
0.000000 0.000000 0.000000
0.000000 0.000000 0.000000
0.000000 0.000000 0.000000
0.052735 0.052735 0.052735
0.111757 0.111757 0.111757
0.165286 0.165286 0.165286
0.229892 0.229892 0.229892
0.295811 0.295811 0.295811
0.344823 0.344823 0.344823
0.365240 0.365240 0.365240
0.370886 0.370886 0.370886
0.372076 0.372076 0.372076
0.374273 0.374273 0.374273
0.380896 0.380896 0.380896
0.393866 0.393866 0.393866
0.413855 0.413855 0.413855
0.437324 0.437324 0.437324
0.462898 0.462898 0.462898
0.490700 0.490700 0.490700
0.520439 0.520439 0.520439
0.552239 0.552239 0.552239
0.586145 0.586145 0.586145
0.621332 0.621332 0.621332
0.657588 0.657588 0.657588
0.694820 0.694820 0.694820
0.733028 0.733028 0.733028
0.772427 0.772427 0.772427
0.006836 0.006836 0.006836
0.006836 0.006836 0.006836
0.006836 0.006836 0.006836
0.005859 0.005859 0.005859
0.004883 0.004883 0.004883
0.002930 0.002930 0.002930
0.000977 0.000977 0.000977
0.000977 0.000977 0.000977
0.015625 0.015625 0.015625
0.061524 0.061524 0.061524
0.107546 0.107546 0.107546
0.154543 0.154543 0.154543
0.215976 0.215976 0.215976
0.287480 0.287480 0.287480
0.359960 0.359960 0.359960
0.415808 0.415808 0.415808
0.440681 0.440681 0.440681
0.446998 0.446998 0.446998
0.445899 0.445899 0.445899
0.444038 0.444038 0.444038
0.445350 0.445350 0.445350
0.452216 0.452216 0.452216
0.466407 0.466407 0.466407
0.488655 0.488655 0.488655
0.514275 0.514275 0.514275
0.542290 0.542290 0.542290
0.572717 0.572717 0.572717
0.605127 0.605127 0.605127
0.638727 0.638727 0.638727
0.673579 0.673579 0.673579
0.709499 0.709499 0.709499
0.746578 0.746578 0.746578
0.784878 0.784878 0.784878
0.046876 0.046876 0.046876
0.046876 0.046876 0.046876
0.046876 0.046876 0.046876
0.045899 0.045899 0.045899
0.044923 0.044923 0.044923
0.042969 0.042969 0.042969
0.041016 0.041016 0.041016
0.039063 0.039063 0.039063
0.042969 0.042969 0.042969
0.072267 0.072267 0.072267
0.104067 0.104067 0.104067
0.143618 0.143618 0.143618
0.198886 0.198886 0.198886
0.267857 0.267857 0.267857
0.346349 0.346349 0.346349
0.424872 0.424872 0.424872
0.487709 0.487709 0.487709
0.518120 0.518120 0.518120
0.525963 0.525963 0.525963
0.523461 0.523461 0.523461
0.518273 0.518273 0.518273
0.514794 0.514794 0.514794
0.516869 0.516869 0.516869
0.526513 0.526513 0.526513
0.544793 0.544793 0.544793
0.569940 0.569940 0.569940
0.597986 0.597986 0.597986
0.627985 0.627985 0.627985
0.659510 0.659510 0.659510
0.692439 0.692439 0.692439
0.726772 0.726772 0.726772
0.762417 0.762417 0.762417
0.799405 0.799405 0.799405
0.079957 0.079957 0.079957
0.079957 0.079957 0.079957
0.079347 0.079347 0.079347
0.078737 0.078737 0.078737
0.078126 0.078126 0.078126
0.076173 0.076173 0.076173
0.074220 0.074220 0.074220
0.071290 0.071290 0.071290
0.070314 0.070314 0.070314
0.082399 0.082399 0.082399
0.101869 0.101869 0.101869
0.133730 0.133730 0.133730
0.181369 0.181369 0.181369
0.244358 0.244358 0.244358
0.320928 0.320928 0.320928
0.405921 0.405921 0.405921
0.491005 0.491005 0.491005
0.560449 0.560449 0.560449
0.596735 0.596735 0.596735
0.606683 0.606683 0.606683
0.603845 0.603845 0.603845
0.596399 0.596399 0.596399
0.590234 0.590234 0.590234
0.588708 0.588708 0.588708
0.594141 0.594141 0.594141
0.607385 0.607385 0.607385
0.628870 0.628870 0.628870
0.655604 0.655604 0.655604
0.684352 0.684352 0.684352
0.714931 0.714931 0.714931
0.747127 0.747127 0.747127
0.780880 0.780880 0.780880
0.816190 0.816190 0.816190
0.094026 0.094026 0.094026
0.093690 0.093690 0.093690
0.093690 0.093690 0.093690
0.093324 0.093324 0.093324
0.092592 0.092592 0.092592
0.091890 0.091890 0.091890
0.090791 0.090791 0.090791
0.090059 0.090059 0.090059
0.088960 0.088960 0.088960
0.090425 0.090425 0.090425
0.100923 0.100923 0.100923
0.125338 0.125338 0.125338
0.164981 0.164981 0.164981
0.220371 0.220371 0.220371
0.291234 0.291234 0.291234
0.375250 0.375250 0.375250
0.466804 0.466804 0.466804
0.557702 0.557702 0.557702
0.632166 0.632166 0.632166
0.671717 0.671717 0.671717
0.683742 0.683742 0.683742
0.682094 0.682094 0.682094
0.675257 0.675257 0.675257
0.668177 0.668177 0.668177
0.664240 0.664240 0.664240
0.665644 0.665644 0.665644
0.674098 0.674098 0.674098
0.690272 0.690272 0.690272
0.714199 0.714199 0.714199
0.741573 0.741573 0.741573
0.771145 0.771145 0.771145
0.802518 0.802518 0.802518
0.835691 0.835691 0.835691
0.102815 0.102815 0.102815
0.102815 0.102815 0.102815
0.102480 0.102480 0.102480
0.102174 0.102174 0.102174
0.101564 0.101564 0.101564
0.100618 0.100618 0.100618
0.099672 0.099672 0.099672
0.098390 0.098390 0.098390
0.097383 0.097383 0.097383
0.096712 0.096712 0.096712
0.102174 0.102174 0.102174
0.119051 0.119051 0.119051
0.150484 0.150484 0.150484
0.197665 0.197665 0.197665
0.261173 0.261173 0.261173
0.339788 0.339788 0.339788
0.430610 0.430610 0.430610
0.528405 0.528405 0.528405
0.623774 0.623774 0.623774
0.698695 0.698695 0.698695
0.741329 0.741329 0.741329
0.756863 0.756863 0.756863
0.757961 0.757961 0.757961
0.752346 0.752346 0.752346
0.745205 0.745205 0.745205
0.739712 0.739712 0.739712
0.738430 0.738430 0.738430
0.743038 0.743038 0.743038
0.754726 0.754726 0.754726
0.773953 0.773953 0.773953
0.799374 0.799374 0.799374
0.827756 0.827756 0.827756
0.858335 0.858335 0.858335
0.110109 0.110109 0.110109
0.110109 0.110109 0.110109
0.109834 0.109834 0.109834
0.109560 0.109560 0.109560
0.108705 0.108705 0.108705
0.107851 0.107851 0.107851
0.106691 0.106691 0.106691
0.105501 0.105501 0.105501
0.104341 0.104341 0.104341
0.103426 0.103426 0.103426
0.104341 0.104341 0.104341
0.114961 0.114961 0.114961
0.138521 0.138521 0.138521
0.177432 0.177432 0.177432
0.232456 0.232456 0.232456
0.303502 0.303502 0.303502
0.389502 0.389502 0.389502
0.487098 0.487098 0.487098
0.591028 0.591028 0.591028
0.686854 0.686854 0.686854
0.762203 0.762203 0.762203
0.807919 0.807919 0.807919
0.826780 0.826780 0.826780
0.830472 0.830472 0.830472
0.826688 0.826688 0.826688
0.820096 0.820096 0.820096
0.814054 0.814054 0.814054
0.810971 0.810971 0.810971
0.812772 0.812772 0.812772
0.820676 0.820676 0.820676
0.835477 0.835477 0.835477
0.857328 0.857328 0.857328
0.884459 0.884459 0.884459
0.115755 0.115755 0.115755
0.115755 0.115755 0.115755
0.115480 0.115480 0.115480
0.115206 0.115206 0.115206
0.114443 0.114443 0.114443
0.113649 0.113649 0.113649
0.112306 0.112306 0.112306
0.110933 0.110933 0.110933
0.109560 0.109560 0.109560
0.108431 0.108431 0.108431
0.107546 0.107546 0.107546
0.112306 0.112306 0.112306
0.129183 0.129183 0.129183
0.159976 0.159976 0.159976
0.206577 0.206577 0.206577
0.269474 0.269474 0.269474
0.348577 0.348577 0.348577
0.442054 0.442054 0.442054
0.546593 0.546593 0.546593
0.653986 0.653986 0.653986
0.748653 0.748653 0.748653
0.823392 0.823392 0.823392
0.870817 0.870817 0.870817
0.892882 0.892882 0.892882
0.898985 0.898985 0.898985
0.897063 0.897063 0.897063
0.891600 0.891600 0.891600
0.885588 0.885588 0.885588
0.881651 0.881651 0.881651
0.881468 0.881468 0.881468
0.886656 0.886656 0.886656
0.897978 0.897978 0.897978
0.915953 0.915953 0.915953
0.119814 0.119814 0.119814
0.119814 0.119814 0.119814
0.119539 0.119539 0.119539
0.119051 0.119051 0.119051
0.118318 0.118318 0.118318
0.117311 0.117311 0.117311
0.116274 0.116274 0.116274
0.114687 0.114687 0.114687
0.113405 0.113405 0.113405
0.111757 0.111757 0.111757
0.110658 0.110658 0.110658
0.111208 0.111208 0.111208
0.121523 0.121523 0.121523
0.144778 0.144778 0.144778
0.183444 0.183444 0.183444
0.238132 0.238132 0.238132
0.309575 0.309575 0.309575
0.396857 0.396857 0.396857
0.497841 0.497841 0.497841
0.609400 0.609400 0.609400
0.716152 0.716152 0.716152
0.808621 0.808621 0.808621
0.882109 0.882109 0.882109
0.930358 0.930358 0.930358
0.954376 0.954376 0.954376
0.962829 0.962829 0.962829
0.962799 0.962799 0.962799
0.958618 0.958618 0.958618
0.953246 0.953246 0.953246
0.949035 0.949035 0.949035
0.947753 0.947753 0.947753
0.950988 0.950988 0.950988
0.959808 0.959808 0.959808
0.122255 0.122255 0.122255
0.122011 0.122011 0.122011
0.121767 0.121767 0.121767
0.121309 0.121309 0.121309
0.120546 0.120546 0.120546
0.119539 0.119539 0.119539
0.118318 0.118318 0.118318
0.116793 0.116793 0.116793
0.115206 0.115206 0.115206
0.113649 0.113649 0.113649
0.112032 0.112032 0.112032
0.111208 0.111208 0.111208
0.115755 0.115755 0.115755
0.132052 0.132052 0.132052
0.162570 0.162570 0.162570
0.209445 0.209445 0.209445
0.272709 0.272709 0.272709
0.352819 0.352819 0.352819
0.448585 0.448585 0.448585
0.557916 0.557916 0.557916
0.672145 0.672145 0.672145
0.776913 0.776913 0.776913
0.866697 0.866697 0.866697
0.937560 0.937560 0.937560
0.985657 0.985657 0.985657
1.000000 1.000000 1.000000
1.000000 1.000000 1.000000
1.000000 1.000000 1.000000
1.000000 1.000000 1.000000
1.000000 1.000000 1.000000
1.000000 1.000000 1.000000
1.000000 1.000000 1.000000
1.000000 1.000000 1.000000
0.122957 0.122957 0.122957
0.122957 0.122957 0.122957
0.122713 0.122713 0.122713
0.122255 0.122255 0.122255
0.121309 0.121309 0.121309
0.120302 0.120302 0.120302
0.118807 0.118807 0.118807
0.117311 0.117311 0.117311
0.115480 0.115480 0.115480
0.113924 0.113924 0.113924
0.112032 0.112032 0.112032
0.110658 0.110658 0.110658
0.111482 0.111482 0.111482
0.121523 0.121523 0.121523
0.144778 0.144778 0.144778
0.183444 0.183444 0.183444
0.238499 0.238499 0.238499
0.311070 0.311070 0.311070
0.400092 0.400092 0.400092
0.504509 0.504509 0.504509
0.620935 0.620935 0.620935
0.734218 0.734218 0.734218
0.836240 0.836240 0.836240
0.922118 0.922118 0.922118
0.989929 0.989929 0.989929
1.000000 1.000000 1.000000
1.000000 1.000000 1.000000
1.000000 1.000000 1.000000
1.000000 1.000000 1.000000
1.000000 1.000000 1.000000
1.000000 1.000000 1.000000
1.000000 1.000000 1.000000
1.000000 1.000000 1.000000
0.122713 0.122713 0.122713
0.122713 0.122713 0.122713
0.122469 0.122469 0.122469
0.122011 0.122011 0.122011
0.121309 0.121309 0.121309
0.120058 0.120058 0.120058
0.118563 0.118563 0.118563
0.116793 0.116793 0.116793
0.114961 0.114961 0.114961
0.112856 0.112856 0.112856
0.110933 0.110933 0.110933
0.109560 0.109560 0.109560
0.108431 0.108431 0.108431
0.112856 0.112856 0.112856
0.129183 0.129183 0.129183
0.160281 0.160281 0.160281
0.207614 0.207614 0.207614
0.271824 0.271824 0.271824
0.353460 0.353460 0.353460
0.451698 0.451698 0.451698
0.564996 0.564996 0.564996
0.684382 0.684382 0.684382
0.795377 0.795377 0.795377
0.893278 0.893278 0.893278
0.974701 0.974701 0.974701
1.000000 1.000000 1.000000
1.000000 1.000000 1.000000
1.000000 1.000000 1.000000
1.000000 1.000000 1.000000
1.000000 1.000000 1.000000
1.000000 1.000000 1.000000
1.000000 1.000000 1.000000
1.000000 1.000000 1.000000
0.122469 0.122469 0.122469
0.122255 0.122255 0.122255
0.122011 0.122011 0.122011
0.121523 0.121523 0.121523
0.120546 0.120546 0.120546
0.119295 0.119295 0.119295
0.117800 0.117800 0.117800
0.115999 0.115999 0.115999
0.114168 0.114168 0.114168
0.112032 0.112032 0.112032
0.109834 0.109834 0.109834
0.107851 0.107851 0.107851
0.106386 0.106386 0.106386
0.106966 0.106966 0.106966
0.116793 0.116793 0.116793
0.140108 0.140108 0.140108
0.179568 0.179568 0.179568
0.236118 0.236118 0.236118
0.310155 0.310155 0.310155
0.401282 0.401282 0.401282
0.508873 0.508873 0.508873
0.629419 0.629419 0.629419
0.747646 0.747646 0.747646
0.854887 0.854887 0.854887
0.947662 0.947662 0.947662
1.000000 1.000000 1.000000
1.000000 1.000000 1.000000
1.000000 1.000000 1.000000
1.000000 1.000000 1.000000
1.000000 1.000000 1.000000
1.000000 1.000000 1.000000
1.000000 1.000000 1.000000
1.000000 1.000000 1.000000
0.122713 0.122713 0.122713
0.122713 0.122713 0.122713
0.122255 0.122255 0.122255
0.121767 0.121767 0.121767
0.120790 0.120790 0.120790
0.119539 0.119539 0.119539
0.118044 0.118044 0.118044
0.115999 0.115999 0.115999
0.113924 0.113924 0.113924
0.111757 0.111757 0.111757
0.109285 0.109285 0.109285
0.107271 0.107271 0.107271
0.105501 0.105501 0.105501
0.104341 0.104341 0.104341
0.108705 0.108705 0.108705
0.124849 0.124849 0.124849
0.156954 0.156954 0.156954
0.205295 0.205295 0.205295
0.270970 0.270970 0.270970
0.354437 0.354437 0.354437
0.455360 0.455360 0.455360
0.572320 0.572320 0.572320
0.695216 0.695216 0.695216
0.810086 0.810086 0.810086
0.912352 0.912352 0.912352
0.999145 0.999145 0.999145
1.000000 1.000000 1.000000
1.000000 1.000000 1.000000
1.000000 1.000000 1.000000
1.000000 1.000000 1.000000
1.000000 1.000000 1.000000
1.000000 1.000000 1.000000
1.000000 1.000000 1.000000
0.125795 0.125795 0.125795
0.125551 0.125551 0.125551
0.125338 0.125338 0.125338
0.124849 0.124849 0.124849
0.123903 0.123903 0.123903
0.122469 0.122469 0.122469
0.120790 0.120790 0.120790
0.118807 0.118807 0.118807
0.116518 0.116518 0.116518
0.114168 0.114168 0.114168
0.111482 0.111482 0.111482
0.109285 0.109285 0.109285
0.106966 0.106966 0.106966
0.105501 0.105501 0.105501
0.106081 0.106081 0.106081
0.115480 0.115480 0.115480
0.140291 0.140291 0.140291
0.180545 0.180545 0.180545
0.238132 0.238132 0.238132
0.313603 0.313603 0.313603
0.406958 0.406958 0.406958
0.517449 0.517449 0.517449
0.640955 0.640955 0.640955
0.761685 0.761685 0.761685
0.871672 0.871672 0.871672
0.967437 0.967437 0.967437
