GR3-P-V3 Plady.cube
TITLE "Generated by LUMIX Lab"
#LUMIXPHOTOSTYLE STD
LUT_3D_SIZE 33
DOMAIN_MIN 0.0 0.0 0.0
DOMAIN_MAX 1.0 1.0 1.0
0.000000 0.000000 0.000000
0.005249 0.000519 0.000000
0.027375 0.000244 0.000549
0.072877 0.000671 0.001862
0.103578 0.003235 0.003632
0.124697 0.007813 0.004852
0.145876 0.013336 0.007813
0.167269 0.022950 0.008637
0.190158 0.028504 0.011566
0.214694 0.030365 0.011902
0.240177 0.030488 0.013825
0.267308 0.029450 0.017029
0.295781 0.026612 0.021485
0.325872 0.021576 0.025788
0.357061 0.013947 0.029969
0.389593 0.003326 0.032685
0.422980 0.000000 0.034241
0.457404 0.000000 0.033936
0.492470 0.000000 0.033387
0.528099 0.000000 0.033387
0.564385 0.000000 0.031617
0.600855 0.000000 0.029114
0.637476 0.000000 0.026154
0.673396 0.000000 0.024018
0.709224 0.000000 0.022309
0.744961 0.000000 0.020996
0.780575 0.000000 0.019959
0.816037 0.000000 0.020447
0.851316 0.000000 0.019928
0.886473 0.000000 0.023865
0.921752 0.000000 0.028687
0.957092 0.000000 0.037110
0.992523 0.000000 0.051453
0.002533 0.004150 0.001648
0.006073 0.004883 0.000336
0.025208 0.006043 0.002075
0.070710 0.006470 0.003388
0.102876 0.009003 0.005127
0.124178 0.013611 0.006378
0.145357 0.020325 0.008057
0.167056 0.027527 0.010285
0.190280 0.032868 0.012085
0.214542 0.034974 0.013550
0.240330 0.033661 0.014496
0.267369 0.033814 0.017548
0.295933 0.031952 0.021820
0.325963 0.026917 0.027283
0.357305 0.019074 0.030335
0.389837 0.007233 0.033204
0.423255 0.000000 0.034577
0.457618 0.000000 0.034272
0.492744 0.000000 0.034852
0.528405 0.000000 0.033539
0.564599 0.000000 0.031800
0.601160 0.000000 0.029267
0.637690 0.000000 0.026337
0.673610 0.000000 0.025330
0.709438 0.000000 0.023468
0.745113 0.000000 0.022339
0.780789 0.000000 0.020111
0.816190 0.000000 0.020478
0.851499 0.000000 0.021088
0.886625 0.000000 0.023896
0.921874 0.000000 0.029694
0.957244 0.000000 0.038270
0.992615 0.000000 0.052461
0.005402 0.024964 0.004395
0.009369 0.024506 0.004395
0.029389 0.025666 0.002716
0.069368 0.025544 0.005341
0.100649 0.029755 0.010346
0.121401 0.038178 0.012268
0.143130 0.044892 0.013947
0.165805 0.049470 0.015351
0.189761 0.052186 0.016297
0.214633 0.052644 0.016785
0.240330 0.052522 0.018708
0.267674 0.052247 0.022889
0.296483 0.049928 0.027131
0.326665 0.045655 0.031281
0.358099 0.038544 0.034180
0.390692 0.027497 0.036866
0.424170 0.013214 0.036957
0.458686 0.000000 0.036622
0.493812 0.000000 0.036866
0.529473 0.000000 0.035554
0.565667 0.000000 0.033661
0.602258 0.000000 0.031098
0.638788 0.000000 0.029145
0.674617 0.000000 0.026856
0.710353 0.000000 0.026123
0.746029 0.000000 0.024659
0.781613 0.000000 0.023590
0.816983 0.000000 0.022827
0.852171 0.000000 0.024414
0.887297 0.000000 0.028199
0.922454 0.000000 0.033997
0.957702 0.000000 0.043580
0.993072 0.000000 0.057771
0.013550 0.065187 0.011170
0.017548 0.064759 0.011170
0.035676 0.064912 0.011933
0.077607 0.068208 0.006134
0.102266 0.067292 0.007416
0.118990 0.073640 0.020050
0.140688 0.079652 0.025147
0.164645 0.081483 0.025544
0.189059 0.083040 0.025360
0.214542 0.084382 0.026612
0.240848 0.085267 0.029358
0.268559 0.085420 0.033356
0.297581 0.085054 0.036164
0.328099 0.082582 0.039002
0.359716 0.079103 0.041535
0.392554 0.069917 0.042756
0.426154 0.055970 0.042664
0.460700 0.038453 0.043122
0.495949 0.015930 0.042054
0.531701 0.000000 0.041688
0.567926 0.000000 0.039429
0.604486 0.000000 0.036408
0.640925 0.000000 0.034272
0.676631 0.000000 0.032959
0.712306 0.000000 0.030945
0.747860 0.000000 0.030457
0.783261 0.000000 0.029267
0.818509 0.000000 0.029297
0.853574 0.000000 0.031891
0.888579 0.000000 0.035706
0.923583 0.000000 0.042359
0.958740 0.000000 0.052766
0.993927 0.000000 0.068147
0.034638 0.096376 0.025147
0.040589 0.096132 0.025116
0.057160 0.095857 0.027161
0.084291 0.096620 0.024018
0.104036 0.098543 0.014313
0.125063 0.098604 0.011658
0.142580 0.098787 0.025788
0.164279 0.100801 0.035004
0.188724 0.102968 0.039857
0.214328 0.105013 0.042786
0.241398 0.106172 0.045045
0.269841 0.106905 0.048554
0.299535 0.107362 0.049714
0.330419 0.106844 0.052033
0.362432 0.105440 0.051942
0.395544 0.103059 0.052674
0.429358 0.099580 0.053040
0.464027 0.093874 0.053162
0.499367 0.085176 0.051575
0.535271 0.064271 0.050538
0.571435 0.033906 0.047944
0.608026 0.000000 0.045838
0.644373 0.000000 0.043214
0.679896 0.000000 0.041596
0.715419 0.000000 0.040528
0.750790 0.000000 0.039734
0.785977 0.000000 0.039368
0.820951 0.000000 0.040284
0.855863 0.000000 0.044007
0.890623 0.000000 0.049470
0.925475 0.000000 0.056977
0.960388 0.000000 0.069581
0.995392 0.000000 0.082704
0.053407 0.116670 0.038117
0.057404 0.116548 0.038117
0.071962 0.116365 0.040162
0.089967 0.116457 0.040711
0.105409 0.117769 0.036896
0.126528 0.120424 0.024872
0.149538 0.121309 0.016632
0.168917 0.120211 0.028504
0.190158 0.121523 0.044099
0.215305 0.124483 0.055360
0.242771 0.127047 0.061036
0.271611 0.129000 0.064729
0.302037 0.130251 0.067323
0.333532 0.130983 0.068696
0.366125 0.130709 0.070039
0.399573 0.129824 0.069917
0.433814 0.127810 0.069581
0.468757 0.124727 0.068849
0.504326 0.120211 0.067720
0.540276 0.114046 0.065003
0.576684 0.106203 0.062684
0.613214 0.095186 0.060090
0.649348 0.077150 0.056947
0.684504 0.037659 0.056153
0.719722 0.000000 0.055756
0.754818 0.000000 0.054505
0.789761 0.000000 0.056123
0.824491 0.000000 0.058167
0.859007 0.000000 0.062135
0.893523 0.000000 0.068635
0.928099 0.000000 0.078737
0.962707 0.000000 0.087648
0.997375 0.000000 0.095155
0.064576 0.138552 0.052155
0.068269 0.138460 0.053254
0.082063 0.138552 0.054017
0.095705 0.138033 0.054871
0.109743 0.138643 0.053620
0.127993 0.140688 0.046357
0.150668 0.143648 0.033143
0.175540 0.145205 0.021210
0.197482 0.143771 0.030365
0.219425 0.144564 0.049866
0.244816 0.147555 0.067628
0.274022 0.151003 0.078553
0.305119 0.153872 0.083314
0.337255 0.156069 0.086000
0.370642 0.156954 0.087434
0.404761 0.157321 0.087922
0.439612 0.156588 0.087709
0.474861 0.155184 0.087221
0.510643 0.152407 0.085969
0.546899 0.148928 0.084260
0.583398 0.144045 0.082368
0.620020 0.137942 0.080110
0.655695 0.130678 0.079286
0.690608 0.121981 0.077546
0.725399 0.111696 0.077821
0.760159 0.099458 0.078279
0.794675 0.081025 0.079713
0.829038 0.037385 0.082124
0.863188 0.000000 0.086549
0.897307 0.000000 0.090211
0.931456 0.000000 0.094667
0.965728 0.000000 0.100496
0.999969 0.000000 0.107637
0.080995 0.161990 0.067231
0.083467 0.161929 0.067201
0.090791 0.161837 0.068116
0.101411 0.161807 0.070954
0.116060 0.161593 0.071260
0.132570 0.162722 0.067842
0.152560 0.165133 0.057099
0.176852 0.168612 0.039948
0.203464 0.170535 0.026459
0.227878 0.169802 0.030701
0.251469 0.170291 0.051484
0.277958 0.172915 0.074556
0.308141 0.177005 0.088502
0.341314 0.180789 0.093843
0.375525 0.183566 0.096468
0.410498 0.185367 0.097993
0.446052 0.186130 0.098726
0.482155 0.185916 0.098665
0.518456 0.184604 0.098238
0.554955 0.182712 0.097200
0.591638 0.179995 0.096040
0.628199 0.175998 0.094881
0.663447 0.171481 0.094209
0.697993 0.166232 0.093935
0.732418 0.160250 0.094240
0.766720 0.153780 0.095064
0.800778 0.146456 0.096468
0.834653 0.138735 0.098726
0.868376 0.130190 0.101289
0.901946 0.121401 0.105165
0.935607 0.112734 0.109926
0.969390 0.103731 0.115785
1.000000 0.096223 0.122957
0.091310 0.187015 0.082246
0.092805 0.186954 0.082246
0.098421 0.186984 0.082704
0.108614 0.186923 0.084474
0.122499 0.186740 0.085359
0.138277 0.187198 0.084932
0.157137 0.188724 0.080629
0.179171 0.191745 0.065064
0.205203 0.195590 0.044739
0.233585 0.198306 0.025422
0.260563 0.198215 0.027710
0.286259 0.198489 0.048219
0.314214 0.200839 0.078340
0.345373 0.204807 0.092836
0.379889 0.209384 0.100984
0.416144 0.212985 0.105898
0.452857 0.215518 0.108614
0.489723 0.217044 0.109651
0.526818 0.217380 0.110170
0.564050 0.216861 0.109987
0.601099 0.215427 0.109163
0.637507 0.213046 0.108461
0.672450 0.210025 0.108309
0.706630 0.206607 0.108827
0.740627 0.202701 0.109560
0.774411 0.198520 0.110750
0.807919 0.194125 0.112703
0.841245 0.189578 0.114961
0.874388 0.185183 0.118379
0.907408 0.180697 0.122530
0.940520 0.176852 0.127352
0.973632 0.173739 0.133486
1.000000 0.171450 0.140505
0.098909 0.214176 0.091676
0.100099 0.214115 0.092103
0.105989 0.213993 0.092439
0.115602 0.214054 0.093416
0.129091 0.213993 0.094667
0.145266 0.214023 0.094911
0.163302 0.214878 0.093477
0.183963 0.217044 0.088533
0.208164 0.220523 0.075074
0.236057 0.224735 0.047669
0.266026 0.228153 0.023194
0.295750 0.228733 0.020539
0.323857 0.228977 0.042512
0.353277 0.231022 0.076356
0.385504 0.234836 0.095064
0.420722 0.239567 0.106355
0.458625 0.244266 0.113802
0.496834 0.247715 0.118441
0.535149 0.250004 0.121279
0.573327 0.250950 0.122530
0.611078 0.250919 0.122774
0.647486 0.249973 0.123049
0.682124 0.248081 0.123751
0.716030 0.245823 0.124788
0.749599 0.243290 0.126223
0.782895 0.240482 0.128389
0.815885 0.237705 0.130556
0.848631 0.234623 0.133608
0.881102 0.232090 0.137423
0.913542 0.229618 0.141604
0.945983 0.227634 0.146975
0.978424 0.226383 0.153170
1.000000 0.225834 0.160616
0.106233 0.243290 0.099702
0.107210 0.243351 0.099641
0.112886 0.243351 0.100252
0.122408 0.243259 0.101137
0.136110 0.243229 0.102205
0.152468 0.243290 0.103090
0.170474 0.243717 0.102937
0.190677 0.244968 0.100038
0.213382 0.247654 0.094057
0.239567 0.251530 0.080293
0.269108 0.256138 0.048859
0.300847 0.260044 0.018708
0.333288 0.261295 0.006989
0.363714 0.261814 0.028443
0.394812 0.263493 0.066773
0.427893 0.267033 0.094667
0.463752 0.271702 0.109255
0.502159 0.276707 0.120180
0.542107 0.281285 0.127687
0.581781 0.284459 0.132174
0.620478 0.286229 0.135103
0.657191 0.286473 0.137392
0.691768 0.285832 0.139864
0.725643 0.284581 0.141970
0.758968 0.283024 0.144503
0.791836 0.281346 0.147341
0.824338 0.279545 0.150271
0.856474 0.277836 0.154177
0.888396 0.276219 0.158419
0.920073 0.274937 0.163058
0.951843 0.274052 0.168673
0.983520 0.273869 0.175418
1.000000 0.274449 0.182956
0.112886 0.274418 0.107088
0.114290 0.274449 0.107027
0.119509 0.274449 0.107607
0.129580 0.274418 0.108370
0.142916 0.274479 0.109621
0.159518 0.274540 0.110689
0.177981 0.274723 0.111543
0.197910 0.275547 0.110323
0.220005 0.277409 0.106325
0.244755 0.280613 0.098054
0.273075 0.284855 0.084108
0.304448 0.289738 0.046876
0.337774 0.294163 0.008118
0.372534 0.295964 0.000000
0.405280 0.296605 0.007538
0.438087 0.298100 0.047547
0.472389 0.301122 0.091127
0.508751 0.305547 0.109926
0.547295 0.310643 0.124392
0.587823 0.315770 0.135195
0.628107 0.319890 0.142794
0.665522 0.322087 0.149050
0.700649 0.322698 0.154299
0.734798 0.322789 0.158694
0.768063 0.322362 0.162905
0.800717 0.321538 0.166903
0.832822 0.320684 0.171572
0.864530 0.319860 0.175998
0.895750 0.319127 0.180880
0.926818 0.318700 0.186465
0.957855 0.318608 0.192538
0.988739 0.319097 0.199527
1.000000 0.320470 0.207370
0.119203 0.307408 0.114534
0.120516 0.307439 0.114473
0.125856 0.307408 0.114992
0.135897 0.307439 0.115938
0.149447 0.307530 0.117067
0.165957 0.307622 0.118257
0.185000 0.307744 0.119570
0.205478 0.308202 0.119692
0.227512 0.309483 0.117159
0.251652 0.311833 0.111482
0.278508 0.315404 0.101320
0.308537 0.320073 0.084443
0.341558 0.325292 0.039765
0.376562 0.330053 0.000000
0.413458 0.332219 0.000000
0.448493 0.333104 0.000000
0.482887 0.334417 0.021302
0.518151 0.337102 0.080629
0.554986 0.341100 0.107607
0.593652 0.345983 0.126284
0.632776 0.350896 0.141329
0.671260 0.355047 0.153933
0.707698 0.357763 0.164187
0.742550 0.359442 0.172488
0.776181 0.360388 0.179599
0.808927 0.360815 0.186191
0.840879 0.360998 0.192416
0.872190 0.361028 0.198398
0.902922 0.361120 0.204532
0.933440 0.361425 0.211063
0.963684 0.362005 0.217960
0.993744 0.363256 0.225620
1.000000 0.365057 0.234012
0.125765 0.341833 0.121950
0.126925 0.341863 0.122194
0.131899 0.341863 0.122652
0.142000 0.341924 0.123476
0.155703 0.342016 0.124727
0.172793 0.342229 0.126253
0.192386 0.342351 0.127413
0.213352 0.342657 0.128298
0.235447 0.343481 0.127413
0.259403 0.345190 0.123659
0.285405 0.348028 0.116060
0.314122 0.351934 0.104067
0.345983 0.356939 0.084199
0.380560 0.362341 0.027955
0.417121 0.367315 0.000000
0.455818 0.369848 0.000000
0.492744 0.371099 0.000000
0.528618 0.372168 0.000000
0.564904 0.374395 0.052125
0.601984 0.377844 0.102693
0.639063 0.381750 0.127596
0.675532 0.385779 0.148318
0.711757 0.389685 0.165499
0.748043 0.393439 0.180148
0.782650 0.396185 0.191958
0.815854 0.398199 0.202335
0.847898 0.399634 0.211307
0.879088 0.400855 0.219883
0.909514 0.401892 0.227970
0.939513 0.403082 0.235935
0.969085 0.404456 0.244144
0.998322 0.406317 0.252811
1.000000 0.408789 0.261967
0.131868 0.377691 0.129732
0.132967 0.377722 0.129946
0.138308 0.377752 0.130343
0.148226 0.377813 0.131106
0.162234 0.377966 0.132418
0.179507 0.378149 0.133791
0.199313 0.378363 0.135470
0.220890 0.378668 0.136690
0.243626 0.379126 0.136934
0.267613 0.380346 0.134859
0.293065 0.382513 0.129641
0.320928 0.385779 0.120516
0.351598 0.390082 0.105806
0.385046 0.395209 0.081514
0.421057 0.400732 0.013001
0.458778 0.405951 0.000000
0.498909 0.408728 0.000000
0.537713 0.410071 0.000000
0.575006 0.411139 0.000000
0.611383 0.412543 0.017029
0.646906 0.414557 0.096834
0.681727 0.417121 0.129580
0.716487 0.420447 0.155550
0.751492 0.424414 0.177218
0.786526 0.428687 0.196078
0.820768 0.432715 0.212375
0.853483 0.435981 0.226322
0.884764 0.438575 0.238468
0.915068 0.440894 0.249424
0.944701 0.443214 0.259831
0.973754 0.445533 0.269902
1.000000 0.448157 0.280095
1.000000 0.451209 0.290501
0.138613 0.414649 0.137789
0.139681 0.414649 0.137758
0.145022 0.414679 0.138338
0.154726 0.414801 0.139223
0.168826 0.414954 0.140383
0.186343 0.415198 0.142061
0.206607 0.415381 0.143557
0.228550 0.415717 0.145235
0.251804 0.416083 0.146059
0.276005 0.416876 0.145602
0.301457 0.418463 0.142245
0.328740 0.421057 0.135409
0.358160 0.424720 0.124178
0.390326 0.429267 0.107210
0.425238 0.434546 0.075227
0.462562 0.440162 0.000000
0.501427 0.445533 0.000000
0.542748 0.448463 0.000000
0.582696 0.449714 0.000000
0.619837 0.449683 0.000000
0.655055 0.449714 0.000000
0.689082 0.450416 0.092287
0.722896 0.452216 0.132479
0.756558 0.455238 0.163790
0.790219 0.459205 0.190036
0.823697 0.463722 0.212833
0.856870 0.468666 0.233402
0.888853 0.473243 0.251041
0.919402 0.477211 0.266789
0.948882 0.480873 0.280674
0.977508 0.484474 0.293797
1.000000 0.488136 0.306249
1.000000 0.492103 0.318456
0.145846 0.452461 0.146487
0.146975 0.452430 0.146487
0.152041 0.452522 0.146975
0.161837 0.452644 0.147768
0.175784 0.452857 0.148989
0.193637 0.453071 0.150698
0.214176 0.453315 0.152407
0.236271 0.453681 0.154269
0.260014 0.454047 0.155520
0.284611 0.454566 0.156161
0.310094 0.455787 0.154177
0.337163 0.457771 0.149569
0.365789 0.460639 0.141085
0.396857 0.464515 0.127993
0.430396 0.469337 0.108095
0.466529 0.474678 0.067384
0.504845 0.480415 0.000000
0.544427 0.485542 0.000000
0.585657 0.487892 0.000000
0.625208 0.488014 0.000000
0.661646 0.486854 0.000000
0.696193 0.485847 0.000000
0.729793 0.485939 0.089296
0.762875 0.487312 0.137362
0.795499 0.490059 0.173159
0.827848 0.493843 0.203647
0.859770 0.498604 0.230411
0.891234 0.503960 0.254673
0.922179 0.509758 0.276402
0.951904 0.515373 0.296147
0.980285 0.520470 0.313359
1.000000 0.525444 0.329229
1.000000 0.530480 0.344274
0.153872 0.490913 0.156161
0.155123 0.490944 0.156130
0.160647 0.490974 0.156588
0.169955 0.491066 0.157290
0.184085 0.491279 0.158389
0.201572 0.491554 0.160067
0.221988 0.491829 0.161959
0.244388 0.492226 0.163790
0.268345 0.492622 0.165591
0.293400 0.493080 0.166629
0.319249 0.493904 0.166201
0.345983 0.495430 0.163302
0.374121 0.497749 0.157198
0.404242 0.500938 0.147005
0.436500 0.504967 0.131991
0.471168 0.509758 0.109895
0.507988 0.514824 0.060639
0.546380 0.519738 0.000000
0.585473 0.523919 0.000000
0.625818 0.525383 0.000000
0.665034 0.524651 0.000000
0.701534 0.523095 0.000000
0.736110 0.521660 0.000000
0.769345 0.521233 0.089662
0.801663 0.522179 0.144137
0.833249 0.524468 0.184298
0.864164 0.528222 0.218479
0.894530 0.533043 0.248875
0.924407 0.538933 0.276585
0.953704 0.545586 0.302251
0.982177 0.552605 0.325780
1.000000 0.559289 0.346777
1.000000 0.565820 0.365850
0.164767 0.529198 0.167208
0.165835 0.529259 0.167147
0.170565 0.529290 0.167575
0.179873 0.529412 0.168368
0.193606 0.529595 0.169680
0.210941 0.529839 0.171206
0.231174 0.530144 0.173037
0.253330 0.530541 0.175143
0.277256 0.530938 0.177066
0.302373 0.531395 0.178439
0.328313 0.531914 0.179110
0.354955 0.532982 0.177798
0.382788 0.534630 0.173526
0.411841 0.537072 0.166354
0.442725 0.540276 0.155184
0.475563 0.544121 0.138949
0.510613 0.548425 0.115724
0.547570 0.552941 0.070863
0.585779 0.557183 0.000000
0.624475 0.560662 0.000000
0.664485 0.561761 0.000000
0.703731 0.560723 0.000000
0.740352 0.558740 0.000000
0.774777 0.557000 0.000000
0.807523 0.556176 0.095277
0.839017 0.556664 0.153414
0.869535 0.558679 0.197055
0.899199 0.562219 0.234714
0.928069 0.567254 0.268437
0.956268 0.573480 0.299565
0.983673 0.580774 0.328527
1.000000 0.588830 0.355718
1.000000 0.597070 0.380529
0.179049 0.566308 0.181186
0.179934 0.566369 0.181277
0.184451 0.566369 0.181674
0.193271 0.566522 0.182345
0.206271 0.566674 0.183536
0.222751 0.566888 0.185183
0.242252 0.567224 0.186923
0.264012 0.567590 0.189090
0.287480 0.567987 0.191073
0.312169 0.568444 0.192996
0.337774 0.568872 0.194339
0.364294 0.569574 0.194186
0.391516 0.570764 0.191775
0.419806 0.572625 0.186740
0.449531 0.575158 0.178317
0.480812 0.578302 0.166323
0.514214 0.581964 0.149325
0.549401 0.586023 0.125277
0.586358 0.590051 0.088899
0.624384 0.593713 0.000000
0.662776 0.596704 0.000000
0.702358 0.597528 0.000000
0.741421 0.596094 0.000000
0.777981 0.593927 0.000000
0.812131 0.591791 0.000000
0.844327 0.590509 0.105440
0.875059 0.590631 0.165286
0.904509 0.592370 0.211673
0.932921 0.595880 0.252049
0.960266 0.601007 0.289189
0.986664 0.607568 0.323430
1.000000 0.615351 0.355596
1.000000 0.624079 0.385687
0.196841 0.602899 0.198001
0.198123 0.602930 0.198123
0.201999 0.602991 0.198428
0.210117 0.603082 0.199191
0.222110 0.603265 0.200198
0.237125 0.603510 0.201785
0.255741 0.603784 0.203738
0.276585 0.604120 0.205783
0.299382 0.604517 0.208011
0.323491 0.604913 0.209964
0.348669 0.605371 0.211734
0.374578 0.605859 0.212467
0.401312 0.606744 0.211490
0.428809 0.608118 0.208225
0.457465 0.610040 0.202426
0.487495 0.612573 0.193271
0.519127 0.615625 0.180484
0.552636 0.619104 0.162844
0.587823 0.622766 0.139376
0.624659 0.626368 0.105806
0.662379 0.629603 0.009339
0.700313 0.632105 0.000000
0.739345 0.632563 0.000000
0.778073 0.630854 0.000000
0.814420 0.628382 0.000000
0.848142 0.625940 0.000000
0.879789 0.624323 0.120394
0.909728 0.624201 0.179751
0.938170 0.625727 0.227939
0.965209 0.629084 0.270970
0.990967 0.634241 0.310887
1.000000 0.641016 0.348211
1.000000 0.649165 0.383032
0.218235 0.638880 0.217594
0.219455 0.638880 0.217594
0.223209 0.638911 0.217990
0.230228 0.639033 0.218631
0.241001 0.639185 0.219791
0.255070 0.639368 0.221286
0.272343 0.639673 0.223209
0.291905 0.639979 0.225223
0.313603 0.640345 0.227543
0.336919 0.640742 0.229709
0.361242 0.641138 0.231724
0.386511 0.641566 0.233036
0.412451 0.642176 0.233188
0.439155 0.643153 0.231418
0.466621 0.644678 0.227420
0.495430 0.646662 0.220676
0.525505 0.649195 0.210849
0.557305 0.652125 0.197452
0.590784 0.655360 0.179873
0.625879 0.658686 0.157137
0.662318 0.661891 0.126772
0.699611 0.664698 0.074311
0.737148 0.666712 0.000000
0.775326 0.666957 0.000000
0.813596 0.664942 0.000000
0.849546 0.662165 0.000000
0.882872 0.659480 0.008515
0.913970 0.657649 0.138521
0.943084 0.657191 0.196414
0.970397 0.658534 0.245975
0.996002 0.661707 0.291325
1.000000 0.666865 0.333776
1.000000 0.673701 0.373480
0.243137 0.674037 0.239841
0.244083 0.674067 0.240024
0.247410 0.674067 0.240269
0.253666 0.674159 0.240970
0.263279 0.674311 0.242069
0.276127 0.674525 0.243565
0.291844 0.674769 0.245365
0.310094 0.675044 0.247562
0.330571 0.675380 0.249790
0.352544 0.675746 0.252171
0.375830 0.676143 0.254215
0.400153 0.676539 0.255955
0.425269 0.676967 0.256931
0.450965 0.677699 0.256291
0.477485 0.678798 0.253910
0.504875 0.680385 0.248936
0.533501 0.682460 0.241459
0.563561 0.684901 0.231113
0.595209 0.687739 0.217441
0.628473 0.690730 0.199832
0.663264 0.693751 0.177951
0.699275 0.696620 0.150210
0.736080 0.698939 0.113039
0.772946 0.700587 0.017884
0.810300 0.700587 0.000000
0.848020 0.698299 0.000000
0.883543 0.695369 0.000000
0.916442 0.692470 0.084108
0.946807 0.690364 0.158877
0.974975 0.689631 0.215244
1.000000 0.690669 0.265812
1.000000 0.693690 0.312902
1.000000 0.698726 0.357366
0.270970 0.708431 0.264927
0.271489 0.708461 0.264897
0.274266 0.708492 0.265293
0.279820 0.708583 0.265965
0.288365 0.708705 0.267033
0.300053 0.708858 0.268437
0.314366 0.709071 0.270298
0.331243 0.709316 0.272404
0.350195 0.709621 0.274693
0.370733 0.709987 0.277073
0.392828 0.710323 0.279393
0.415961 0.710689 0.281407
0.440009 0.711055 0.282872
0.464668 0.711574 0.283177
0.490028 0.712428 0.281895
0.516106 0.713649 0.278569
0.543297 0.715267 0.272923
0.571649 0.717311 0.264775
0.601465 0.719722 0.253819
0.632807 0.722377 0.239780
0.665705 0.725216 0.222538
0.700099 0.728023 0.201236
0.735531 0.730495 0.175753
0.771695 0.732509 0.144259
0.807889 0.733761 0.103426
0.844388 0.733516 0.009277
0.881407 0.731075 0.000000
0.916320 0.727993 0.010529
0.948638 0.724819 0.120760
0.978271 0.722438 0.181430
1.000000 0.721401 0.235996
1.000000 0.722103 0.286839
1.000000 0.724880 0.335424
0.300969 0.742123 0.292485
0.301732 0.742123 0.292546
0.304143 0.742153 0.292912
0.309087 0.742245 0.293584
0.316686 0.742336 0.294499
0.326940 0.742489 0.295964
0.339818 0.742672 0.297765
0.355108 0.742916 0.299840
0.372564 0.743160 0.302190
0.391760 0.743465 0.304570
0.412421 0.743771 0.307073
0.434272 0.744106 0.309300
0.456977 0.744472 0.311040
0.480537 0.744869 0.311986
0.504662 0.745449 0.311803
0.529503 0.746395 0.309789
0.555169 0.747738 0.305760
0.581933 0.749416 0.299382
0.609857 0.751492 0.290562
0.639246 0.753841 0.279179
0.670130 0.756405 0.264958
0.702571 0.759060 0.247684
0.736355 0.761563 0.227146
0.771115 0.763790 0.203189
0.806546 0.765438 0.175418
0.841978 0.766384 0.143526
0.877501 0.765896 0.109987
0.913695 0.763241 0.089174
0.948028 0.759884 0.106966
0.979583 0.756497 0.152712
1.000000 0.753780 0.205570
1.000000 0.752377 0.258091
1.000000 0.752712 0.309178
0.334020 0.775265 0.322759
0.334539 0.775265 0.322881
0.336645 0.775296 0.323125
0.340948 0.775326 0.323857
0.347631 0.775418 0.324743
0.356878 0.775540 0.326177
0.368414 0.775692 0.327947
0.382177 0.775906 0.329961
0.398047 0.776120 0.332250
0.415717 0.776394 0.334752
0.434943 0.776638 0.337346
0.455299 0.776944 0.339666
0.476631 0.777279 0.341711
0.498970 0.777554 0.343175
0.521813 0.778012 0.343725
0.545220 0.778714 0.342779
0.569421 0.779721 0.339940
0.594415 0.781125 0.335210
0.620539 0.782864 0.328222
0.647944 0.784909 0.318822
0.676722 0.787228 0.306981
0.707057 0.789670 0.292363
0.738766 0.792111 0.275151
0.771817 0.794430 0.255131
0.805844 0.796323 0.232334
0.840421 0.797696 0.207004
0.874998 0.798276 0.179995
0.909514 0.797574 0.154269
0.944793 0.794736 0.140383
0.978271 0.791135 0.150454
1.000000 0.787411 0.183993
1.000000 0.784298 0.230747
1.000000 0.782406 0.281498
0.369451 0.807645 0.355688
0.369848 0.807645 0.355749
0.371710 0.807675 0.356085
0.375463 0.807736 0.356664
0.381415 0.807767 0.357610
0.389502 0.807889 0.358953
0.399817 0.808011 0.360693
0.412207 0.808164 0.362615
0.426490 0.808316 0.364843
0.442512 0.808530 0.367254
0.460090 0.808774 0.369787
0.478950 0.809018 0.372290
0.498878 0.809262 0.374487
0.519677 0.809567 0.376226
0.541131 0.809873 0.377295
0.563256 0.810361 0.377264
0.585901 0.811154 0.375647
0.609308 0.812253 0.372229
0.633600 0.813718 0.366918
0.658991 0.815457 0.359319
0.685603 0.817472 0.349462
0.713710 0.819699 0.337041
0.743221 0.822049 0.322210
0.774197 0.824308 0.304875
0.806424 0.826383 0.285252
0.839597 0.828061 0.263340
