GR3-N-V3 Plady.cube
TITLE "Generated by LUMIX Lab"
#LUMIXPHOTOSTYLE STD
LUT_3D_SIZE 9
DOMAIN_MIN 0.0 0.0 0.0
DOMAIN_MAX 1.0 1.0 1.0
0.000000 0.000000 0.000000
0.129488 0.017914 0.000824
0.268650 0.082551 0.000000
0.409277 0.127169 0.000000
0.548821 0.173861 0.000000
0.685237 0.221439 0.000000
0.816709 0.268864 0.000000
0.940337 0.316777 0.002686
1.000000 0.367193 0.109682
0.000000 0.122286 0.070253
0.120333 0.124453 0.054749
0.276127 0.145388 0.041718
0.420844 0.172488 0.032410
0.560113 0.208530 0.026612
0.695521 0.248600 0.029114
0.824979 0.290867 0.049805
0.945739 0.335027 0.097047
1.000000 0.382452 0.142458
0.000000 0.244053 0.148348
0.000000 0.242039 0.134554
0.250340 0.259312 0.127932
0.421942 0.295262 0.148501
0.595209 0.322362 0.161288
0.736812 0.347112 0.170535
0.858061 0.373907 0.181430
0.967498 0.405737 0.201389
1.000000 0.443275 0.233371
0.000000 0.364019 0.223362
0.000000 0.362463 0.215152
0.173312 0.363958 0.191073
0.391211 0.403906 0.210910
0.570794 0.451453 0.254887
0.756954 0.489174 0.268589
0.896605 0.507225 0.295995
0.996674 0.525017 0.324407
1.000000 0.548943 0.356786
0.000000 0.474342 0.293431
0.000000 0.473243 0.288151
0.076905 0.470375 0.268711
0.303044 0.486549 0.253483
0.533471 0.549218 0.298314
0.719661 0.604700 0.359686
0.875700 0.637324 0.390387
0.997559 0.658961 0.441016
1.000000 0.678065 0.493385
0.000000 0.578485 0.358801
0.000000 0.577630 0.354894
0.000000 0.574853 0.339940
0.224430 0.575525 0.316625
0.432654 0.613489 0.321172
0.671229 0.687892 0.389776
0.841245 0.736995 0.477180
0.958953 0.765103 0.532738
1.000000 0.785519 0.585962
0.000000 0.692592 0.425818
0.000000 0.691920 0.422614
0.000000 0.689418 0.410193
0.109468 0.686702 0.388464
0.347814 0.698024 0.371283
0.572503 0.746426 0.406531
0.792966 0.807553 0.505272
0.929900 0.844541 0.606134
1.000000 0.865751 0.661982
0.000000 0.813077 0.508934
0.000000 0.812528 0.506523
0.000000 0.810483 0.496742
0.000000 0.807492 0.478920
0.302647 0.807340 0.455970
0.504784 0.826322 0.462287
0.717769 0.865293 0.531121
0.891905 0.903685 0.631434
0.992554 0.926146 0.714534
0.269688 0.943786 0.644617
0.279667 0.943420 0.643214
0.316655 0.941955 0.637354
0.376165 0.939635 0.626459
0.450050 0.937774 0.611627
0.556115 0.940307 0.601038
0.705257 0.952026 0.622889
0.856931 0.969146 0.680903
0.971649 0.982574 0.751492
0.022766 0.046632 0.122377
0.129366 0.050568 0.121523
0.265019 0.092042 0.111604
0.401678 0.133730 0.111147
0.539178 0.177981 0.108888
0.675196 0.223362 0.107424
0.807736 0.269780 0.108675
0.933562 0.317296 0.119448
1.000000 0.367437 0.149752
0.042420 0.118074 0.133181
0.135439 0.135439 0.135439
0.271611 0.151339 0.135348
0.410407 0.177340 0.133547
0.549035 0.211246 0.132174
0.684871 0.250095 0.131930
0.815824 0.291417 0.134188
0.938994 0.335363 0.145632
1.000000 0.382788 0.173617
0.000000 0.256016 0.197726
0.108827 0.252293 0.183902
0.258122 0.264439 0.177676
0.424231 0.298436 0.194705
0.588495 0.322484 0.202945
0.726986 0.346441 0.205875
0.849516 0.373449 0.211368
0.961089 0.405585 0.225284
1.000000 0.443244 0.251225
0.000000 0.370794 0.252873
0.000000 0.368841 0.244846
0.190372 0.367437 0.221042
0.394690 0.405859 0.242069
0.571221 0.453315 0.281559
0.756283 0.489693 0.294682
0.891905 0.507195 0.317510
0.991882 0.525322 0.340795
1.000000 0.549462 0.368841
0.000000 0.478920 0.312963
0.000000 0.477638 0.307530
0.126558 0.474159 0.288396
0.308415 0.487678 0.272587
0.535424 0.550072 0.318334
0.719448 0.605676 0.377813
0.874784 0.638392 0.407507
0.995697 0.660792 0.456977
1.000000 0.679835 0.504753
0.000000 0.581842 0.372656
0.000000 0.580957 0.368811
0.000000 0.577844 0.353826
0.236149 0.577356 0.330724
0.435187 0.613733 0.334783
0.672297 0.688289 0.404181
0.840635 0.737758 0.490852
0.957885 0.766415 0.544488
1.000000 0.787137 0.595514
0.000000 0.694789 0.436255
0.000000 0.694057 0.433173
0.000000 0.691432 0.420661
0.139651 0.688350 0.399176
0.352148 0.698329 0.381384
0.573877 0.746151 0.416388
0.793790 0.807675 0.515831
0.929381 0.845151 0.614923
1.000000 0.866667 0.668727
0.000000 0.814237 0.516594
0.000000 0.813687 0.514244
0.000000 0.811521 0.504387
0.044648 0.808377 0.486641
0.309209 0.807767 0.463569
0.506462 0.826047 0.469062
0.718654 0.865049 0.537591
0.892363 0.903777 0.637507
0.992279 0.926513 0.719722
0.278233 0.944457 0.649256
0.287694 0.944091 0.647852
0.323583 0.942596 0.641993
0.381659 0.940185 0.630976
0.454017 0.938170 0.616114
0.557702 0.940398 0.605005
0.705806 0.951965 0.626246
0.857389 0.969116 0.684077
0.971862 0.982635 0.754635
0.043549 0.114687 0.245304
0.137728 0.117250 0.248508
0.271763 0.125216 0.253056
0.397101 0.162570 0.230564
0.536431 0.195163 0.231815
0.656062 0.224491 0.224094
0.779355 0.268254 0.222538
0.908659 0.314488 0.224491
1.000000 0.364721 0.234867
0.091310 0.164950 0.251804
0.149325 0.167636 0.254215
0.273899 0.175631 0.259129
0.400183 0.203067 0.244083
0.535485 0.218753 0.238987
0.656489 0.248112 0.233188
0.784024 0.288212 0.233555
0.913237 0.331792 0.236820
1.000000 0.379553 0.248142
0.132723 0.241154 0.270573
0.173739 0.248692 0.272068
0.278691 0.277714 0.277348
0.414008 0.291264 0.277928
0.550225 0.311040 0.278874
0.684108 0.336278 0.280034
0.813352 0.366003 0.282200
0.934478 0.400244 0.288487
1.000000 0.439582 0.302983
0.142916 0.394415 0.351873
0.176577 0.394690 0.346105
0.256901 0.386847 0.314916
0.405859 0.411780 0.323522
0.575830 0.457343 0.354498
0.747646 0.486549 0.369543
0.869047 0.502251 0.377905
0.971344 0.522057 0.388769
1.000000 0.547601 0.406226
0.096864 0.498543 0.386114
0.137118 0.497078 0.380591
0.223636 0.491066 0.359655
0.331487 0.492836 0.337652
0.542046 0.552972 0.382757
0.718868 0.608789 0.437507
0.871519 0.641810 0.466468
0.986542 0.666102 0.510094
1.000000 0.684108 0.541527
0.000000 0.596460 0.427680
0.000000 0.595392 0.423804
0.170657 0.591272 0.408362
0.282200 0.586786 0.384497
0.445533 0.614649 0.383948
0.676692 0.689601 0.455909
0.838163 0.740688 0.539544
0.954192 0.771298 0.586084
1.000000 0.793271 0.630579
0.000000 0.704189 0.478828
0.000000 0.703426 0.475746
0.000000 0.700252 0.463020
0.219608 0.695766 0.441230
0.370275 0.700099 0.420600
0.579217 0.745022 0.453834
0.796750 0.808164 0.555077
0.927611 0.847532 0.647486
1.000000 0.870268 0.693996
0.000000 0.819303 0.548028
0.000000 0.818692 0.545617
0.000000 0.816220 0.535821
0.188815 0.812345 0.517998
0.336584 0.809964 0.494820
0.513085 0.824887 0.495796
0.721950 0.863859 0.562097
0.894438 0.904173 0.661006
0.991485 0.928099 0.739803
0.309178 0.947387 0.668574
0.317479 0.946990 0.667109
0.349523 0.945373 0.661036
0.402869 0.942596 0.649653
0.470100 0.939971 0.634516
0.563745 0.941070 0.621027
0.707454 0.951873 0.639460
0.858946 0.969085 0.696620
0.972839 0.982879 0.767086
0.103853 0.176303 0.372290
0.159304 0.180545 0.375280
0.283330 0.193790 0.386633
0.422736 0.205722 0.392828
0.540215 0.223667 0.359716
0.681361 0.289555 0.364752
0.791928 0.301305 0.350500
0.897581 0.318547 0.333715
1.000000 0.354467 0.324529
0.127443 0.211002 0.374517
0.171695 0.214084 0.377142
0.286381 0.225742 0.388220
0.422797 0.237522 0.395239
0.540185 0.254215 0.365301
0.679866 0.305669 0.369451
0.789395 0.312993 0.353124
0.896574 0.330205 0.337072
1.000000 0.367102 0.330022
0.154330 0.298192 0.382605
0.190982 0.299138 0.383856
0.292607 0.306676 0.392432
0.422827 0.321416 0.403937
0.543389 0.343450 0.389227
0.671107 0.352453 0.380713
0.781125 0.357153 0.363531
0.896635 0.381781 0.355749
1.000000 0.420264 0.359350
0.202152 0.360723 0.403174
0.227909 0.365301 0.404273
0.309209 0.383948 0.408576
0.421363 0.419165 0.417212
0.552941 0.431525 0.417945
0.683436 0.448615 0.419684
0.809659 0.469856 0.422492
0.927337 0.495735 0.428229
1.000000 0.526757 0.439399
0.223423 0.516320 0.488991
0.245243 0.518486 0.488319
0.313878 0.524468 0.480751
0.395789 0.516594 0.444221
0.551812 0.556268 0.468391
0.718959 0.610224 0.514305
0.863767 0.643244 0.546593
0.965240 0.661952 0.565362
1.000000 0.677760 0.577203
0.211704 0.625147 0.526909
0.229740 0.624475 0.523033
0.287694 0.620478 0.506279
0.363104 0.611475 0.476844
0.465644 0.617456 0.459174
0.683345 0.690944 0.531731
0.834836 0.745113 0.606836
0.950378 0.778012 0.644251
1.000000 0.801785 0.682002
0.108370 0.723537 0.556939
0.141634 0.722652 0.553796
0.223758 0.718837 0.540581
0.315343 0.711940 0.516747
0.410010 0.707179 0.489784
0.587152 0.742184 0.512352
0.801968 0.809110 0.613458
0.925811 0.851835 0.695918
1.000000 0.876005 0.732906
0.000000 0.830076 0.606348
0.000000 0.829374 0.603967
0.185214 0.826444 0.593957
0.291905 0.821195 0.575402
0.390906 0.816037 0.551751
0.524773 0.823178 0.541192
0.725948 0.861479 0.600641
0.898131 0.905241 0.699031
0.990570 0.930999 0.772610
0.355016 0.953887 0.705928
0.362005 0.953429 0.704372
0.389685 0.951537 0.697810
0.437446 0.948150 0.685512
0.498970 0.944244 0.668910
0.576226 0.943084 0.651759
0.709010 0.951904 0.662837
0.861051 0.969207 0.718105
0.974701 0.983520 0.788815
0.162661 0.244144 0.494026
0.198093 0.247318 0.496651
0.299809 0.259251 0.507530
0.435767 0.278569 0.527001
0.575555 0.291386 0.533501
0.689235 0.295384 0.498390
0.816464 0.378180 0.495399
0.922698 0.421057 0.496315
1.000000 0.422217 0.474342
0.175418 0.266758 0.494423
0.207309 0.269474 0.496956
0.303105 0.280369 0.507683
0.436103 0.299077 0.527398
0.575097 0.312047 0.534691
0.688319 0.316960 0.500664
0.815885 0.394812 0.500450
0.920989 0.428473 0.498085
1.000000 0.426978 0.474372
0.201114 0.332677 0.495399
0.227665 0.334386 0.497627
0.311772 0.343847 0.507530
0.436469 0.363684 0.528344
0.573175 0.378820 0.539208
0.685206 0.389014 0.510430
0.812314 0.448341 0.517113
0.913817 0.452552 0.501335
1.000000 0.445533 0.473548
0.220676 0.423743 0.505669
0.242679 0.425360 0.506615
0.317754 0.429603 0.510216
0.433082 0.444160 0.525872
0.568658 0.467659 0.545983
0.682795 0.488594 0.533227
0.799619 0.498268 0.525628
0.900664 0.483528 0.496437
1.000000 0.489876 0.477821
0.273167 0.474159 0.527581
0.290196 0.477272 0.528435
0.351598 0.490517 0.532158
0.445991 0.516533 0.539574
0.559716 0.555993 0.552087
0.684108 0.567193 0.552728
0.805356 0.583185 0.555962
0.918181 0.603143 0.561517
1.000000 0.627283 0.570275
0.292332 0.625116 0.610620
0.307530 0.627619 0.610986
0.363195 0.636896 0.611749
0.445441 0.648920 0.606104
0.526360 0.641413 0.567742
0.690181 0.690517 0.609491
0.835416 0.747005 0.667048
0.950164 0.780911 0.701625
1.000000 0.796078 0.716945
0.285924 0.746334 0.660304
0.298314 0.746456 0.658442
0.343755 0.746059 0.649042
0.413458 0.740688 0.624537
0.488258 0.729091 0.589715
0.596368 0.737545 0.579278
0.808408 0.810269 0.674678
0.926421 0.857298 0.746670
1.000000 0.882048 0.775998
0.265690 0.847379 0.690913
0.277745 0.846769 0.688441
0.320928 0.843992 0.677943
0.386816 0.837827 0.657527
0.462654 0.828977 0.629572
0.547601 0.824460 0.603754
0.726528 0.857145 0.644343
0.903319 0.907195 0.744228
0.990509 0.935271 0.811826
0.407233 0.964904 0.764462
0.413458 0.964446 0.762753
0.438239 0.962463 0.755489
0.481605 0.958465 0.741482
0.538323 0.952819 0.721767
0.603662 0.948363 0.700954
0.710201 0.952636 0.696956
0.862608 0.969543 0.747097
0.977508 0.984710 0.818448
0.219577 0.310643 0.611658
0.243992 0.313024 0.613855
0.325750 0.322576 0.623163
0.445411 0.340612 0.641108
0.588678 0.365454 0.663325
0.724025 0.379644 0.667262
0.828916 0.384558 0.634730
0.925963 0.470832 0.619501
1.000000 0.566400 0.643854
0.226810 0.325963 0.611414
0.249790 0.328252 0.613581
0.328740 0.337438 0.622827
0.446479 0.355322 0.640803
0.588525 0.380468 0.663325
0.723384 0.394720 0.667781
0.827543 0.400397 0.635737
0.924468 0.484413 0.622919
1.000000 0.572808 0.646021
0.246494 0.376959 0.610040
0.266819 0.378943 0.612085
0.337896 0.387854 0.620966
0.449287 0.406226 0.639063
0.587762 0.433173 0.663203
0.720394 0.448676 0.669642
0.821836 0.457618 0.639918
0.918914 0.534905 0.637324
1.000000 0.593896 0.652491
0.257176 0.451606 0.608606
0.276371 0.452705 0.610010
0.345220 0.458320 0.616815
0.450202 0.475898 0.633783
0.583856 0.507469 0.660914
0.714321 0.527886 0.672419
0.811398 0.543755 0.649409
0.913298 0.607965 0.662135
1.000000 0.614466 0.652735
0.287144 0.539208 0.622126
0.302007 0.540948 0.622858
0.357366 0.547631 0.625971
0.445563 0.556176 0.631464
0.570550 0.577844 0.651148
0.705043 0.611383 0.675105
0.804440 0.635126 0.668177
0.907195 0.645289 0.663813
1.000000 0.616449 0.627405
0.339025 0.582025 0.644068
0.351415 0.584314 0.644678
0.398688 0.593774 0.647120
0.477150 0.612665 0.652094
0.577722 0.642267 0.660243
0.691218 0.683680 0.674525
0.804074 0.693904 0.675319
0.911315 0.708766 0.679286
1.000000 0.726925 0.685359
0.350103 0.722347 0.720363
0.361761 0.724453 0.720668
0.407233 0.733028 0.721798
0.483070 0.748043 0.722988
0.572808 0.762692 0.717708
0.650721 0.754849 0.679103
0.813870 0.809842 0.734218
0.931243 0.861601 0.794156
1.000000 0.886503 0.822263
0.370092 0.855619 0.782559
0.379126 0.856077 0.781674
0.414557 0.857633 0.777371
0.473060 0.858854 0.765530
0.543847 0.853758 0.736782
0.614282 0.840848 0.698085
0.723201 0.849760 0.693507
0.909758 0.909972 0.794949
0.992279 0.941405 0.855528
0.450080 0.977386 0.846433
0.456397 0.977295 0.844877
0.481788 0.976593 0.837797
0.526207 0.973968 0.822293
0.582574 0.968109 0.798245
0.645014 0.959777 0.769436
0.717220 0.956146 0.746731
0.861784 0.970275 0.781949
0.981323 0.986633 0.855528
0.290867 0.384039 0.728817
0.308293 0.386053 0.730220
0.372320 0.394507 0.736202
0.473640 0.412085 0.748165
0.598596 0.440040 0.765743
0.733486 0.472816 0.782986
0.852232 0.489082 0.782834
0.940063 0.503777 0.755398
1.000000 0.581964 0.734096
0.294743 0.395056 0.728328
0.312047 0.396979 0.729702
0.374823 0.405402 0.735653
0.475074 0.422919 0.747677
0.599176 0.451026 0.765316
0.733394 0.484077 0.782803
0.851255 0.500389 0.782956
0.938384 0.515251 0.755917
1.000000 0.590906 0.736110
0.307652 0.434821 0.726101
0.323583 0.436591 0.727443
0.382849 0.444831 0.733272
0.479469 0.462348 0.745266
0.601038 0.491402 0.763394
0.732815 0.526360 0.782071
0.847318 0.543267 0.783474
0.931823 0.557824 0.758206
1.000000 0.624811 0.744289
0.316045 0.494697 0.721614
0.331579 0.496040 0.722805
0.389654 0.502892 0.728176
0.482399 0.520195 0.739773
0.601801 0.551415 0.758816
0.731106 0.590326 0.780392
0.840848 0.608179 0.784848
0.921965 0.621912 0.762936
0.996429 0.678218 0.759182
0.309972 0.571099 0.720577
0.324102 0.571466 0.720974
0.378180 0.573602 0.723232
0.470680 0.582116 0.730648
0.592279 0.609979 0.749050
0.724331 0.653407 0.776791
0.834195 0.676326 0.787655
0.913207 0.691676 0.770901
0.992645 0.741634 0.781277
0.348241 0.647639 0.731991
0.359380 0.648951 0.732326
0.402472 0.654353 0.733852
0.475837 0.664302 0.736873
0.570275 0.674769 0.741512
0.700374 0.702235 0.762844
0.826352 0.742184 0.790524
0.908507 0.765316 0.786831
0.994873 0.775387 0.784817
0.396887 0.683009 0.751827
0.406683 0.684535 0.752041
0.445411 0.691157 0.753109
0.512566 0.704524 0.755489
0.600488 0.725917 0.760006
0.701472 0.756649 0.768460
0.809049 0.798672 0.785397
0.908415 0.808194 0.786648
1.000000 0.822171 0.791348
0.414252 0.811185 0.825925
0.422980 0.812924 0.826169
0.458015 0.820035 0.827085
0.519707 0.833646 0.828702
0.600855 0.852323 0.829984
0.688472 0.868528 0.824338
0.761807 0.860349 0.782345
0.916045 0.912474 0.847868
0.997528 0.948608 0.899718
0.474922 0.968292 0.916655
0.481453 0.968963 0.916381
0.507805 0.971679 0.915038
0.554772 0.976440 0.910979
0.616785 0.981567 0.899779
0.687098 0.980529 0.870237
0.755215 0.969574 0.828946
0.855009 0.971679 0.822782
0.986145 0.989471 0.899382
0.397162 0.479744 0.840482
0.408820 0.481544 0.841184
0.454475 0.489448 0.844266
0.532677 0.506126 0.850523
0.633692 0.533593 0.860258
0.745022 0.569360 0.872465
0.854124 0.601251 0.882597
0.947997 0.615351 0.879911
1.000000 0.631128 0.858457
0.399939 0.487587 0.840085
0.411353 0.489387 0.840787
0.456580 0.497261 0.843839
0.534295 0.513817 0.850095
0.634821 0.541375 0.859831
0.745541 0.576837 0.872160
0.854002 0.608637 0.882506
0.947173 0.622522 0.879973
1.000000 0.637934 0.858793
0.408698 0.517205 0.838437
0.419867 0.518975 0.839139
0.463630 0.526635 0.842069
0.539879 0.543053 0.848264
0.638788 0.570428 0.858122
0.747250 0.605035 0.870970
0.853422 0.636713 0.882231
0.944121 0.650172 0.880522
1.000000 0.664088 0.860319
0.415930 0.563561 0.835264
0.427039 0.565148 0.835904
0.470130 0.572259 0.838682
0.544945 0.588251 0.844663
0.641657 0.614282 0.854887
0.748257 0.648432 0.868925
0.852201 0.681025 0.882200
0.939483 0.694392 0.882139
1.000000 0.706264 0.863340
0.399695 0.620264 0.831205
0.411231 0.621118 0.831632
0.457008 0.625299 0.833738
0.535546 0.636164 0.839078
0.633326 0.659144 0.849332
0.743069 0.693965 0.865446
0.849393 0.730709 0.882780
0.935058 0.745876 0.885618
0.998474 0.757046 0.868498
0.385443 0.693996 0.834165
0.395178 0.694179 0.834226
0.433356 0.694636 0.834440
0.501427 0.695430 0.835264
0.600305 0.703609 0.840574
0.723018 0.734279 0.856992
0.842252 0.779904 0.881834
0.930999 0.801511 0.890959
0.992615 0.814145 0.877531
0.419806 0.753231 0.841855
0.428107 0.754208 0.841978
0.461097 0.758175 0.842527
0.519432 0.765927 0.843748
0.597192 0.776822 0.845975
0.688380 0.786648 0.849271
0.815183 0.814786 0.869261
0.926604 0.856657 0.896971
0.990143 0.875669 0.894530
0.462104 0.783474 0.861967
0.469368 0.784482 0.862028
0.498970 0.788846 0.862211
0.552636 0.797604 0.862699
0.625635 0.811765 0.863859
0.712276 0.832120 0.866606
0.808927 0.860838 0.873259
0.910430 0.902342 0.891875
0.998932 0.911223 0.894285
0.493141 0.906767 0.946258
0.499123 0.908110 0.946471
0.523827 0.913817 0.947326
0.569390 0.925353 0.949096
0.633265 0.942992 0.951690
0.711696 0.965637 0.954284
0.796536 0.986481 0.949920
0.873320 0.983185 0.906493
0.991760 0.993652 0.952819
0.568902 0.627985 0.952300
0.575219 0.629206 0.952422
0.600885 0.634272 0.952941
0.647761 0.644343 0.954131
0.711910 0.659632 0.956329
0.787198 0.679744 0.959747
0.867338 0.702388 0.964172
0.949218 0.720638 0.967224
1.000000 0.728237 0.961852
0.570672 0.632929 0.952300
0.576989 0.634119 0.952422
0.602441 0.639094 0.952911
0.648981 0.648981 0.954101
0.712795 0.664088 0.956298
0.787747 0.683986 0.959716
0.867552 0.706538 0.964141
0.949096 0.724788 0.967285
1.000000 0.732296 0.961975
0.576959 0.652064 0.952422
0.583001 0.653132 0.952544
0.607813 0.657771 0.953033
0.653223 0.667048 0.954131
0.715785 0.681361 0.956237
0.789517 0.700618 0.959655
0.868254 0.722805 0.964141
0.948669 0.741115 0.967559
1.000000 0.748257 0.962554
0.583062 0.683406 0.953216
0.588891 0.684352 0.953307
0.612787 0.688411 0.953704
0.657038 0.696651 0.954681
0.718318 0.709804 0.956634
0.790890 0.728054 0.959930
0.868650 0.749874 0.964569
0.948058 0.768673 0.968536
1.000000 0.775448 0.964019
0.575738 0.722347 0.955505
0.581964 0.722896 0.955566
0.607019 0.725582 0.955901
0.652338 0.731777 0.956664
0.714199 0.743343 0.958190
0.788205 0.760861 0.961181
0.867613 0.783474 0.965911
0.947387 0.804562 0.970703
1.000000 0.811521 0.966827
0.545068 0.770779 0.959991
0.551263 0.770993 0.960052
0.577020 0.771817 0.960266
0.625971 0.774319 0.960784
0.696468 0.781125 0.961852
0.777249 0.796719 0.963928
0.863066 0.820645 0.968322
0.946777 0.845975 0.974212
1.000000 0.854063 0.971283
0.529015 0.833005 0.966766
0.534478 0.833280 0.966857
0.556970 0.834257 0.967193
0.599145 0.835569 0.967834
0.660121 0.835477 0.968536
0.744320 0.838315 0.969787
0.847349 0.857053 0.972442
0.945373 0.889555 0.979156
1.000000 0.901213 0.977691
0.539391 0.874449 0.973114
0.544488 0.875120 0.973205
0.565057 0.877958 0.973571
0.603723 0.883543 0.974395
0.658717 0.892088 0.975921
0.726955 0.902708 0.978332
0.810697 0.911803 0.981231
0.933013 0.930083 0.984558
1.000000 0.954833 0.986786
0.569879 0.902434 0.997375
0.574395 0.903105 0.997375
0.593164 0.905882 0.997406
0.628748 0.911498 0.997528
0.681331 0.920653 0.997650
0.751614 0.934356 0.997681
0.837491 0.953552 0.997559
0.932982 0.978546 0.997528
1.000000 1.000000 1.000000
