GR3-HiBW Plady.cube
TITLE "Generated by LUMIX Lab"
#LUMIXPHOTOSTYLE MONO
LUT_3D_SIZE 5
DOMAIN_MIN 0.0 0.0 0.0
DOMAIN_MAX 1.0 1.0 1.0
0.000000 0.000000 0.000000
0.000000 0.000000 0.000000
0.152285 0.152285 0.152285
0.404211 0.404211 0.404211
0.716182 0.716182 0.716182
0.000000 0.000000 0.000000
0.000000 0.000000 0.000000
0.202365 0.202365 0.202365
0.434882 0.434882 0.434882
0.737423 0.737423 0.737423
0.094026 0.094026 0.094026
0.088960 0.088960 0.088960
0.466804 0.466804 0.466804
0.664240 0.664240 0.664240
0.835691 0.835691 0.835691
0.122469 0.122469 0.122469
0.114168 0.114168 0.114168
0.179568 0.179568 0.179568
0.947662 0.947662 0.947662
1.000000 1.000000 1.000000
0.514580 0.514580 0.514580
0.507591 0.507591 0.507591
0.495064 0.495064 0.495064
0.821622 0.821622 0.821622
1.000000 1.000000 1.000000
0.000000 0.000000 0.000000
0.000000 0.000000 0.000000
0.205783 0.205783 0.205783
0.443519 0.443519 0.443519
0.741085 0.741085 0.741085
0.000000 0.000000 0.000000
0.098390 0.098390 0.098390
0.261662 0.261662 0.261662
0.472847 0.472847 0.472847
0.761135 0.761135 0.761135
0.185611 0.185611 0.185611
0.176150 0.176150 0.176150
0.500999 0.500999 0.500999
0.653376 0.653376 0.653376
0.849973 0.849973 0.849973
0.174685 0.174685 0.174685
0.163058 0.163058 0.163058
0.184390 0.184390 0.184390
0.965972 0.965972 0.965972
1.000000 1.000000 1.000000
0.544579 0.544579 0.544579
0.535882 0.535882 0.535882
0.516136 0.516136 0.516136
0.810117 0.810117 0.810117
1.000000 1.000000 1.000000
0.197299 0.197299 0.197299
0.214359 0.214359 0.214359
0.251255 0.251255 0.251255
0.483497 0.483497 0.483497
0.799557 0.799557 0.799557
0.257633 0.257633 0.257633
0.276280 0.276280 0.276280
0.314885 0.314885 0.314885
0.535210 0.535210 0.535210
0.826444 0.826444 0.826444
0.364385 0.364385 0.364385
0.396399 0.396399 0.396399
0.526146 0.526146 0.526146
0.681209 0.681209 0.681209
0.904082 0.904082 0.904082
0.461891 0.461891 0.461891
0.443091 0.443091 0.443091
0.350225 0.350225 0.350225
1.000000 1.000000 1.000000
1.000000 1.000000 1.000000
0.698573 0.698573 0.698573
0.685054 0.685054 0.685054
0.635065 0.635065 0.635065
0.750973 0.750973 0.750973
1.000000 1.000000 1.000000
0.447852 0.447852 0.447852
0.456641 0.456641 0.456641
0.483406 0.483406 0.483406
0.537835 0.537835 0.537835
0.802121 0.802121 0.802121
0.481422 0.481422 0.481422
0.490669 0.490669 0.490669
0.519036 0.519036 0.519036
0.575280 0.575280 0.575280
0.834195 0.834195 0.834195
0.583398 0.583398 0.583398
0.598688 0.598688 0.598688
0.646052 0.646052 0.646052
0.707729 0.707729 0.707729
0.949462 0.949462 0.949462
0.683619 0.683619 0.683619
0.700557 0.700557 0.700557
0.776028 0.776028 0.776028
0.954040 0.954040 0.954040
1.000000 1.000000 1.000000
0.990753 0.990753 0.990753
0.991913 0.991913 0.991913
0.982025 0.982025 0.982025
0.868986 0.868956 0.868956
1.000000 1.000000 1.000000
0.967254 0.967254 0.967254
0.967864 0.967864 0.967864
0.967193 0.967193 0.967193
0.961089 0.961089 0.961089
0.990600 0.990600 0.990600
0.982696 0.982696 0.982696
0.983459 0.983459 0.983459
0.983307 0.983307 0.983307
0.977020 0.977020 0.977020
1.000000 1.000000 1.000000
1.000000 1.000000 1.000000
1.000000 1.000000 1.000000
1.000000 1.000000 1.000000
1.000000 1.000000 1.000000
1.000000 1.000000 1.000000
1.000000 1.000000 1.000000
1.000000 1.000000 1.000000
1.000000 1.000000 1.000000
1.000000 1.000000 1.000000
1.000000 1.000000 1.000000
1.000000 1.000000 1.000000
1.000000 1.000000 1.000000
1.000000 1.000000 1.000000
1.000000 1.000000 1.000000
1.000000 1.000000 1.000000
