GR3-HiBW Plady.cube
TITLE "Generated by LUMIX Lab"
#LUMIXPHOTOSTYLE MONO
LUT_3D_SIZE 9
DOMAIN_MIN 0.0 0.0 0.0
DOMAIN_MAX 1.0 1.0 1.0
0.000000 0.000000 0.000000
0.000000 0.000000 0.000000
0.000000 0.000000 0.000000
0.000000 0.000000 0.000000
0.152285 0.152285 0.152285
0.278477 0.278477 0.278477
0.404211 0.404211 0.404211
0.548089 0.548089 0.548089
0.716182 0.716182 0.716182
0.000000 0.000000 0.000000
0.000000 0.000000 0.000000
0.000000 0.000000 0.000000
0.000000 0.000000 0.000000
0.162905 0.162905 0.162905
0.286107 0.286107 0.286107
0.410315 0.410315 0.410315
0.553338 0.553338 0.553338
0.720272 0.720272 0.720272
0.000000 0.000000 0.000000
0.000000 0.000000 0.000000
0.000000 0.000000 0.000000
0.105806 0.105806 0.105806
0.202365 0.202365 0.202365
0.316075 0.316075 0.316075
0.434882 0.434882 0.434882
0.575158 0.575158 0.575158
0.737423 0.737423 0.737423
0.000000 0.000000 0.000000
0.000000 0.000000 0.000000
0.000000 0.000000 0.000000
0.229892 0.229892 0.229892
0.370886 0.370886 0.370886
0.393866 0.393866 0.393866
0.490700 0.490700 0.490700
0.621332 0.621332 0.621332
0.772427 0.772427 0.772427
0.094026 0.094026 0.094026
0.092592 0.092592 0.092592
0.088960 0.088960 0.088960
0.164981 0.164981 0.164981
0.466804 0.466804 0.466804
0.683742 0.683742 0.683742
0.664240 0.664240 0.664240
0.714199 0.714199 0.714199
0.835691 0.835691 0.835691
0.119814 0.119814 0.119814
0.118318 0.118318 0.118318
0.113405 0.113405 0.113405
0.121523 0.121523 0.121523
0.309575 0.309575 0.309575
0.716152 0.716152 0.716152
0.954376 0.954376 0.954376
0.953246 0.953246 0.953246
0.959808 0.959808 0.959808
0.122469 0.122469 0.122469
0.120546 0.120546 0.120546
0.114168 0.114168 0.114168
0.106386 0.106386 0.106386
0.179568 0.179568 0.179568
0.508873 0.508873 0.508873
0.947662 0.947662 0.947662
1.000000 1.000000 1.000000
1.000000 1.000000 1.000000
0.152621 0.152621 0.152621
0.150484 0.150484 0.150484
0.142855 0.142855 0.142855
0.131807 0.131807 0.131807
0.138705 0.138705 0.138705
0.339513 0.339513 0.339513
0.786893 0.786893 0.786893
1.000000 1.000000 1.000000
1.000000 1.000000 1.000000
0.514580 0.514580 0.514580
0.513115 0.513115 0.513115
0.507591 0.507591 0.507591
0.499123 0.499123 0.499123
0.495064 0.495064 0.495064
0.564385 0.564385 0.564385
0.821622 0.821622 0.821622
1.000000 1.000000 1.000000
1.000000 1.000000 1.000000
0.000000 0.000000 0.000000
0.000000 0.000000 0.000000
0.000000 0.000000 0.000000
0.000000 0.000000 0.000000
0.169314 0.169314 0.169314
0.290074 0.290074 0.290074
0.412848 0.412848 0.412848
0.555047 0.555047 0.555047
0.721187 0.721187 0.721187
0.000000 0.000000 0.000000
0.000000 0.000000 0.000000
0.000000 0.000000 0.000000
0.033204 0.033204 0.033204
0.179568 0.179568 0.179568
0.297490 0.297490 0.297490
0.418708 0.418708 0.418708
0.560143 0.560143 0.560143
0.725277 0.725277 0.725277
0.000000 0.000000 0.000000
0.000000 0.000000 0.000000
0.000000 0.000000 0.000000
0.119051 0.119051 0.119051
0.215885 0.215885 0.215885
0.325933 0.325933 0.325933
0.442695 0.442695 0.442695
0.581628 0.581628 0.581628
0.742153 0.742153 0.742153
0.023438 0.023438 0.023438
0.021485 0.021485 0.021485
0.033204 0.033204 0.033204
0.243259 0.243259 0.243259
0.372930 0.372930 0.372930
0.398444 0.398444 0.398444
0.496620 0.496620 0.496620
0.626642 0.626642 0.626642
0.776486 0.776486 0.776486
0.111482 0.111482 0.111482
0.109834 0.109834 0.109834
0.105501 0.105501 0.105501
0.170840 0.170840 0.170840
0.475013 0.475013 0.475013
0.685634 0.685634 0.685634
0.662745 0.662745 0.662745
0.717098 0.717098 0.717098
0.838499 0.838499 0.838499
0.133120 0.133120 0.133120
0.131594 0.131594 0.131594
0.125795 0.125795 0.125795
0.129397 0.129397 0.129397
0.311131 0.311131 0.311131
0.721614 0.721614 0.721614
0.957397 0.957397 0.957397
0.952575 0.952575 0.952575
0.959747 0.959747 0.959747
0.131807 0.131807 0.131807
0.130068 0.130068 0.130068
0.122957 0.122957 0.122957
0.114443 0.114443 0.114443
0.180270 0.180270 0.180270
0.508141 0.508141 0.508141
0.951598 0.951598 0.951598
1.000000 1.000000 1.000000
1.000000 1.000000 1.000000
0.158816 0.158816 0.158816
0.156619 0.156619 0.156619
0.148501 0.148501 0.148501
0.136660 0.136660 0.136660
0.140108 0.140108 0.140108
0.335271 0.335271 0.335271
0.786007 0.786007 0.786007
1.000000 1.000000 1.000000
1.000000 1.000000 1.000000
0.520073 0.520073 0.520073
0.518517 0.518517 0.518517
0.512688 0.512688 0.512688
0.503807 0.503807 0.503807
0.498939 0.498939 0.498939
0.563561 0.563561 0.563561
0.819516 0.819516 0.819516
1.000000 1.000000 1.000000
1.000000 1.000000 1.000000
0.000000 0.000000 0.000000
0.000000 0.000000 0.000000
0.000000 0.000000 0.000000
0.053712 0.053712 0.053712
0.205783 0.205783 0.205783
0.325322 0.325322 0.325322
0.443519 0.443519 0.443519
0.581659 0.581659 0.581659
0.741085 0.741085 0.741085
0.000000 0.000000 0.000000
0.000000 0.000000 0.000000
0.000000 0.000000 0.000000
0.099367 0.099367 0.099367
0.220371 0.220371 0.220371
0.333989 0.333989 0.333989
0.449561 0.449561 0.449561
0.586755 0.586755 0.586755
0.745022 0.745022 0.745022
0.000000 0.000000 0.000000
0.000000 0.000000 0.000000
0.098390 0.098390 0.098390
0.171450 0.171450 0.171450
0.261662 0.261662 0.261662
0.362402 0.362402 0.362402
0.472847 0.472847 0.472847
0.607172 0.607172 0.607172
0.761135 0.761135 0.761135
0.149599 0.149599 0.149599
0.151736 0.151736 0.151736
0.148318 0.148318 0.148318
0.279545 0.279545 0.279545
0.363256 0.363256 0.363256
0.419776 0.419776 0.419776
0.519860 0.519860 0.519860
0.647364 0.647364 0.647364
0.792935 0.792935 0.792935
0.185611 0.185611 0.185611
0.183719 0.183719 0.183719
0.176150 0.176150 0.176150
0.196780 0.196780 0.196780
0.500999 0.500999 0.500999
0.681575 0.681575 0.681575
0.653376 0.653376 0.653376
0.728328 0.728328 0.728328
0.849973 0.849973 0.849973
0.191379 0.191379 0.191379
0.189303 0.189303 0.189303
0.181247 0.181247 0.181247
0.172183 0.172183 0.172183
0.316716 0.316716 0.316716
0.741054 0.741054 0.741054
0.965301 0.965301 0.965301
0.946563 0.946563 0.946563
0.959106 0.959106 0.959106
0.174685 0.174685 0.174685
0.172335 0.172335 0.172335
0.163058 0.163058 0.163058
0.150332 0.150332 0.150332
0.184390 0.184390 0.184390
0.503868 0.503868 0.503868
0.965972 0.965972 0.965972
1.000000 1.000000 1.000000
1.000000 1.000000 1.000000
0.186923 0.186923 0.186923
0.184237 0.184237 0.184237
0.174105 0.174105 0.174105
0.158480 0.158480 0.158480
0.150149 0.150149 0.150149
0.317113 0.317113 0.317113
0.780392 0.780392 0.780392
1.000000 1.000000 1.000000
1.000000 1.000000 1.000000
0.544579 0.544579 0.544579
0.542809 0.542809 0.542809
0.535882 0.535882 0.535882
0.524712 0.524712 0.524712
0.516136 0.516136 0.516136
0.560388 0.560388 0.560388
0.810117 0.810117 0.810117
1.000000 1.000000 1.000000
1.000000 1.000000 1.000000
0.056641 0.056641 0.056641
0.074220 0.074220 0.074220
0.096376 0.096376 0.096376
0.112306 0.112306 0.112306
0.206699 0.206699 0.206699
0.346105 0.346105 0.346105
0.476936 0.476936 0.476936
0.619348 0.619348 0.619348
0.773281 0.773281 0.773281
0.096712 0.096712 0.096712
0.102480 0.102480 0.102480
0.117800 0.117800 0.117800
0.132906 0.132906 0.132906
0.224826 0.224826 0.224826
0.358434 0.358434 0.358434
0.485664 0.485664 0.485664
0.625605 0.625605 0.625605
0.777554 0.777554 0.777554
0.154208 0.154208 0.154208
0.161929 0.161929 0.161929
0.185183 0.185183 0.185183
0.201999 0.201999 0.201999
0.291386 0.291386 0.291386
0.404944 0.404944 0.404944
0.518547 0.518547 0.518547
0.649073 0.649073 0.649073
0.794064 0.794064 0.794064
0.202853 0.202853 0.202853
0.211460 0.211460 0.211460
0.246433 0.246433 0.246433
0.312230 0.312230 0.312230
0.382025 0.382025 0.382025
0.465248 0.465248 0.465248
0.564691 0.564691 0.564691
0.685420 0.685420 0.685420
0.823209 0.823209 0.823209
0.314183 0.314183 0.314183
0.317235 0.317235 0.317235
0.324041 0.324041 0.324041
0.308568 0.308568 0.308568
0.528435 0.528435 0.528435
0.628260 0.628260 0.628260
0.649989 0.649989 0.649989
0.747799 0.747799 0.747799
0.870878 0.870878 0.870878
0.319707 0.319707 0.319707
0.316930 0.316930 0.316930
0.304723 0.304723 0.304723
0.283604 0.283604 0.283604
0.328618 0.328618 0.328618
0.765194 0.765194 0.765194
0.959350 0.959350 0.959350
0.921416 0.921416 0.921416
0.963104 0.963104 0.963104
0.273106 0.273106 0.273106
0.269627 0.269627 0.269627
0.255406 0.255406 0.255406
0.232273 0.232273 0.232273
0.217502 0.217502 0.217502
0.484535 0.484535 0.484535
0.988098 0.988098 0.988098
1.000000 1.000000 1.000000
1.000000 1.000000 1.000000
0.253605 0.253605 0.253605
0.250004 0.250004 0.250004
0.235355 0.235355 0.235355
0.210575 0.210575 0.210575
0.187594 0.187594 0.187594
0.280308 0.280308 0.280308
0.760647 0.760647 0.760647
1.000000 1.000000 1.000000
1.000000 1.000000 1.000000
0.599603 0.599603 0.599603
0.597406 0.597406 0.597406
0.588464 0.588464 0.588464
0.572564 0.572564 0.572564
0.556054 0.556054 0.556054
0.565576 0.565576 0.565576
0.788418 0.788418 0.788418
1.000000 1.000000 1.000000
1.000000 1.000000 1.000000
0.197299 0.197299 0.197299
0.201297 0.201297 0.201297
0.214359 0.214359 0.214359
0.230198 0.230198 0.230198
0.251255 0.251255 0.251255
0.337072 0.337072 0.337072
0.483497 0.483497 0.483497
0.639796 0.639796 0.639796
0.799557 0.799557 0.799557
0.211368 0.211368 0.211368
0.215122 0.215122 0.215122
0.227878 0.227878 0.227878
0.243351 0.243351 0.243351
0.264469 0.264469 0.264469
0.350164 0.350164 0.350164
0.493721 0.493721 0.493721
0.647608 0.647608 0.647608
0.804959 0.804959 0.804959
0.257633 0.257633 0.257633
0.261753 0.261753 0.261753
0.276280 0.276280 0.276280
0.293858 0.293858 0.293858
0.314885 0.314885 0.314885
0.402045 0.402045 0.402045
0.535210 0.535210 0.535210
0.678462 0.678462 0.678462
0.826444 0.826444 0.826444
0.314946 0.314946 0.314946
0.320928 0.320928 0.320928
0.344884 0.344884 0.344884
0.379309 0.379309 0.379309
0.403265 0.403265 0.403265
0.493233 0.493233 0.493233
0.608148 0.608148 0.608148
0.730007 0.730007 0.730007
0.862669 0.862669 0.862669
0.364385 0.364385 0.364385
0.370550 0.370550 0.370550
0.396399 0.396399 0.396399
0.447272 0.447272 0.447272
0.526146 0.526146 0.526146
0.595483 0.595483 0.595483
0.681209 0.681209 0.681209
0.783169 0.783169 0.783169
0.904082 0.904082 0.904082
0.476570 0.476570 0.476570
0.479652 0.479652 0.479652
0.490211 0.490211 0.490211
0.495491 0.495491 0.495491
0.455879 0.455879 0.455879
0.776242 0.776242 0.776242
0.888243 0.888243 0.888243
0.884031 0.884031 0.884031
0.972808 0.972808 0.972808
0.461891 0.461891 0.461891
0.458839 0.458839 0.458839
0.443091 0.443091 0.443091
0.402197 0.402197 0.402197
0.350225 0.350225 0.350225
0.439612 0.439612 0.439612
1.000000 1.000000 1.000000
1.000000 1.000000 1.000000
1.000000 1.000000 1.000000
0.397131 0.397131 0.397131
0.391669 0.391669 0.391669
0.369116 0.369116 0.369116
0.326604 0.326604 0.326604
0.274662 0.274662 0.274662
0.255344 0.255344 0.255344
0.703212 0.703212 0.703212
1.000000 1.000000 1.000000
1.000000 1.000000 1.000000
0.698573 0.698573 0.698573
0.695949 0.695949 0.695949
0.685054 0.685054 0.685054
0.663722 0.663722 0.663722
0.635065 0.635065 0.635065
0.616205 0.616205 0.616205
0.750973 0.750973 0.750973
1.000000 1.000000 1.000000
1.000000 1.000000 1.000000
0.312444 0.312444 0.312444
0.315068 0.315068 0.315068
0.324956 0.324956 0.324956
0.340032 0.340032 0.340032
0.356878 0.356878 0.356878
0.384802 0.384802 0.384802
0.471321 0.471321 0.471321
0.637293 0.637293 0.637293
0.807095 0.807095 0.807095
0.321935 0.321935 0.321935
0.324529 0.324529 0.324529
0.334386 0.334386 0.334386
0.349462 0.349462 0.349462
0.366430 0.366430 0.366430
0.394385 0.394385 0.394385
0.481453 0.481453 0.481453
0.645838 0.645838 0.645838
0.813169 0.813169 0.813169
0.357397 0.357397 0.357397
0.360174 0.360174 0.360174
0.370703 0.370703 0.370703
0.386999 0.386999 0.386999
0.404822 0.404822 0.404822
0.433204 0.433204 0.433204
0.522972 0.522972 0.522972
0.680140 0.680140 0.680140
0.837736 0.837736 0.837736
0.413123 0.413123 0.413123
0.416815 0.416815 0.416815
0.431250 0.431250 0.431250
0.453437 0.453437 0.453437
0.475380 0.475380 0.475380
0.504570 0.504570 0.504570
0.600946 0.600946 0.600946
0.740139 0.740139 0.740139
0.882475 0.882475 0.882475
0.469154 0.469154 0.469154
0.473854 0.473854 0.473854
0.493568 0.493568 0.493568
0.530907 0.530907 0.530907
0.574670 0.574670 0.574670
0.607416 0.607416 0.607416
0.705653 0.705653 0.705653
0.819059 0.819059 0.819059
0.942840 0.942840 0.942840
0.521111 0.521111 0.521111
0.525811 0.525811 0.525811
0.545739 0.545739 0.545739
0.585840 0.585840 0.585840
0.648493 0.648493 0.648493
0.740078 0.740078 0.740078
0.809751 0.809751 0.809751
0.895750 0.895750 0.895750
1.000000 1.000000 1.000000
0.643610 0.643610 0.643610
0.646235 0.646235 0.646235
0.656245 0.656245 0.656245
0.669581 0.669581 0.669581
0.661433 0.661433 0.661433
0.570336 0.570336 0.570336
1.000000 1.000000 1.000000
1.000000 1.000000 1.000000
1.000000 1.000000 1.000000
0.652003 0.652003 0.652003
0.649317 0.649317 0.649317
0.635859 0.635859 0.635859
0.597772 0.597772 0.597772
0.505852 0.505852 0.505852
0.395758 0.395758 0.395758
0.567346 0.567346 0.567346
1.000000 1.000000 1.000000
1.000000 1.000000 1.000000
0.847990 0.847990 0.847990
0.846128 0.846128 0.846128
0.837003 0.837003 0.837003
0.814878 0.814878 0.814878
0.776883 0.776883 0.776883
0.730007 0.730007 0.730007
0.727687 0.727687 0.727687
1.000000 1.000000 1.000000
1.000000 1.000000 1.000000
0.447852 0.447852 0.447852
0.449653 0.449653 0.449653
0.456641 0.456641 0.456641
0.468605 0.468605 0.468605
0.483406 0.483406 0.483406
0.501823 0.501823 0.501823
0.537835 0.537835 0.537835
0.632044 0.632044 0.632044
0.802121 0.802121 0.802121
0.454597 0.454597 0.454597
0.456397 0.456397 0.456397
0.463447 0.463447 0.463447
0.475502 0.475502 0.475502
0.490425 0.490425 0.490425
0.508934 0.508934 0.508934
0.545159 0.545159 0.545159
0.639673 0.639673 0.639673
0.808377 0.808377 0.808377
0.481422 0.481422 0.481422
0.483253 0.483253 0.483253
0.490669 0.490669 0.490669
0.503319 0.503319 0.503319
0.519036 0.519036 0.519036
0.538140 0.538140 0.538140
0.575280 0.575280 0.575280
0.670741 0.670741 0.670741
0.834195 0.834195 0.834195
0.527855 0.527855 0.527855
0.530053 0.530053 0.530053
0.539025 0.539025 0.539025
0.554253 0.554253 0.554253
0.572595 0.572595 0.572595
0.593225 0.593225 0.593225
0.631006 0.631006 0.631006
0.728206 0.728206 0.728206
0.881865 0.881865 0.881865
0.583398 0.583398 0.583398
0.586419 0.586419 0.586419
0.598688 0.598688 0.598688
0.620600 0.620600 0.620600
0.646052 0.646052 0.646052
0.669734 0.669734 0.669734
0.707729 0.707729 0.707729
0.809873 0.809873 0.809873
0.949462 0.949462 0.949462
0.632837 0.632837 0.632837
0.636164 0.636164 0.636164
0.650324 0.650324 0.650324
0.678248 0.678248 0.678248
0.721309 0.721309 0.721309
0.769162 0.769162 0.769162
0.810575 0.810575 0.810575
0.917815 0.917815 0.917815
1.000000 1.000000 1.000000
0.683619 0.683619 0.683619
0.686793 0.686793 0.686793
0.700557 0.700557 0.700557
0.728939 0.728939 0.728939
0.776028 0.776028 0.776028
0.847715 0.847715 0.847715
0.954040 0.954040 0.954040
1.000000 1.000000 1.000000
1.000000 1.000000 1.000000
0.820706 0.820706 0.820706
0.823087 0.823087 0.823087
0.832670 0.832670 0.832670
0.849058 0.849058 0.849058
0.863188 0.863188 0.863188
0.836515 0.836515 0.836515
0.662867 0.662867 0.662867
1.000000 1.000000 1.000000
1.000000 1.000000 1.000000
0.990753 0.990753 0.990753
0.991089 0.991089 0.991089
0.991913 0.991913 0.991913
0.991272 0.991272 0.991272
0.982025 0.982025 0.982025
0.941375 0.941375 0.941375
0.868986 0.868956 0.868956
1.000000 1.000000 1.000000
1.000000 1.000000 1.000000
0.649073 0.649073 0.649073
0.650050 0.650050 0.650050
0.653895 0.653895 0.653895
0.660609 0.660609 0.660609
0.668971 0.668971 0.668971
0.678859 0.678859 0.678859
0.694881 0.694881 0.694881
0.732784 0.732784 0.732784
0.822232 0.822232 0.822232
0.653712 0.653712 0.653712
0.654688 0.654688 0.654688
0.658595 0.658595 0.658595
0.665278 0.665278 0.665278
0.673701 0.673701 0.673701
0.683558 0.683558 0.683558
0.699641 0.699641 0.699641
0.737545 0.737545 0.737545
0.827146 0.827146 0.827146
0.672450 0.672450 0.672450
0.673487 0.673487 0.673487
0.677455 0.677455 0.677455
0.684321 0.684321 0.684321
0.693019 0.693019 0.693019
0.703029 0.703029 0.703029
0.718959 0.718959 0.718959
0.757137 0.757137 0.757137
0.847501 0.847501 0.847501
0.705470 0.705470 0.705470
0.706600 0.706600 0.706600
0.711086 0.711086 0.711086
0.718807 0.718807 0.718807
0.728420 0.728420 0.728420
0.738979 0.738979 0.738979
0.754940 0.754940 0.754940
0.793576 0.793576 0.793576
0.886290 0.886290 0.886290
0.746700 0.746700 0.746700
0.748196 0.748196 0.748196
0.754116 0.754116 0.754116
0.764431 0.764431 0.764431
0.776761 0.776761 0.776761
0.789487 0.789487 0.789487
0.806210 0.806210 0.806210
0.846067 0.846067 0.846067
0.944640 0.944640 0.944640
0.785763 0.785763 0.785763
0.787655 0.787655 0.787655
0.795621 0.795621 0.795621
0.811032 0.811032 0.811032
0.833097 0.833097 0.833097
0.855741 0.855741 0.855741
0.876768 0.876768 0.876768
0.918791 0.918791 0.918791
1.000000 1.000000 1.000000
0.820706 0.820706 0.820706
0.822873 0.822873 0.822873
0.832059 0.832059 0.832059
0.850858 0.850858 0.850858
0.881407 0.881407 0.881407
0.924804 0.924804 0.924804
0.971649 0.971649 0.971649
1.000000 1.000000 1.000000
1.000000 1.000000 1.000000
0.873198 0.873198 0.873198
0.875151 0.875151 0.875151
0.883757 0.883757 0.883757
0.901610 0.901610 0.901610
0.931609 0.931609 0.931609
0.978180 0.978180 0.978180
1.000000 1.000000 1.000000
1.000000 1.000000 1.000000
1.000000 1.000000 1.000000
1.000000 1.000000 1.000000
1.000000 1.000000 1.000000
1.000000 1.000000 1.000000
1.000000 1.000000 1.000000
1.000000 1.000000 1.000000
1.000000 1.000000 1.000000
1.000000 1.000000 1.000000
1.000000 1.000000 1.000000
1.000000 1.000000 1.000000
0.967254 0.967254 0.967254
0.967407 0.967407 0.967407
0.967864 0.967864 0.967864
0.968109 0.968109 0.968109
0.967193 0.967193 0.967193
0.964355 0.964355 0.964355
0.961089 0.961089 0.961089
0.964355 0.964355 0.964355
0.990600 0.990600 0.990600
0.970245 0.970245 0.970245
0.970397 0.970397 0.970397
0.970855 0.970855 0.970855
0.971191 0.971191 0.971191
0.970275 0.970275 0.970275
0.967468 0.967468 0.967468
0.964172 0.964172 0.964172
0.967376 0.967376 0.967376
0.993530 0.993530 0.993530
0.982696 0.982696 0.982696
0.982879 0.982879 0.982879
0.983459 0.983459 0.983459
0.983948 0.983948 0.983948
0.983307 0.983307 0.983307
0.980560 0.980560 0.980560
0.977020 0.977020 0.977020
0.979828 0.979828 0.979828
1.000000 1.000000 1.000000
1.000000 1.000000 1.000000
1.000000 1.000000 1.000000
1.000000 1.000000 1.000000
1.000000 1.000000 1.000000
1.000000 1.000000 1.000000
1.000000 1.000000 1.000000
1.000000 1.000000 1.000000
1.000000 1.000000 1.000000
1.000000 1.000000 1.000000
1.000000 1.000000 1.000000
1.000000 1.000000 1.000000
1.000000 1.000000 1.000000
1.000000 1.000000 1.000000
1.000000 1.000000 1.000000
1.000000 1.000000 1.000000
1.000000 1.000000 1.000000
1.000000 1.000000 1.000000
1.000000 1.000000 1.000000
1.000000 1.000000 1.000000
1.000000 1.000000 1.000000
1.000000 1.000000 1.000000
1.000000 1.000000 1.000000
1.000000 1.000000 1.000000
1.000000 1.000000 1.000000
1.000000 1.000000 1.000000
1.000000 1.000000 1.000000
1.000000 1.000000 1.000000
1.000000 1.000000 1.000000
1.000000 1.000000 1.000000
1.000000 1.000000 1.000000
1.000000 1.000000 1.000000
1.000000 1.000000 1.000000
1.000000 1.000000 1.000000
1.000000 1.000000 1.000000
1.000000 1.000000 1.000000
1.000000 1.000000 1.000000
1.000000 1.000000 1.000000
1.000000 1.000000 1.000000
1.000000 1.000000 1.000000
1.000000 1.000000 1.000000
1.000000 1.000000 1.000000
1.000000 1.000000 1.000000
1.000000 1.000000 1.000000
1.000000 1.000000 1.000000
1.000000 1.000000 1.000000
1.000000 1.000000 1.000000
1.000000 1.000000 1.000000
1.000000 1.000000 1.000000
1.000000 1.000000 1.000000
1.000000 1.000000 1.000000
1.000000 1.000000 1.000000
1.000000 1.000000 1.000000
1.000000 1.000000 1.000000
1.000000 1.000000 1.000000
