GR3-P-V3 Plady.cube
TITLE "Generated by LUMIX Lab"
#LUMIXPHOTOSTYLE STD
LUT_3D_SIZE 5
DOMAIN_MIN 0.0 0.0 0.0
DOMAIN_MAX 1.0 1.0 1.0
0.000000 0.000000 0.000000
0.190158 0.028504 0.011566
0.422980 0.000000 0.034241
0.709224 0.000000 0.022309
0.992523 0.000000 0.051453
0.091310 0.187015 0.082246
0.205203 0.195590 0.044739
0.452857 0.215518 0.108614
0.740627 0.202701 0.109560
1.000000 0.171450 0.140505
0.145846 0.452461 0.146487
0.260014 0.454047 0.155520
0.504845 0.480415 0.000000
0.795499 0.490059 0.173159
1.000000 0.530480 0.344274
0.300969 0.742123 0.292485
0.372564 0.743160 0.302190
0.555169 0.747738 0.305760
0.806546 0.765438 0.175418
1.000000 0.752712 0.309178
0.583612 0.982757 0.558831
0.611627 0.982452 0.563867
0.707118 0.981628 0.576562
0.844541 0.985718 0.557183
1.000000 0.989929 0.454261
0.041382 0.049226 0.173404
0.190951 0.033387 0.181369
0.428595 0.000000 0.198947
0.700008 0.000000 0.183474
0.986053 0.000000 0.185885
0.020813 0.194553 0.192447
0.202304 0.202243 0.201968
0.447181 0.196231 0.203006
0.724971 0.164645 0.204013
0.999145 0.111360 0.218479
0.106477 0.458259 0.238926
0.256626 0.460945 0.252323
0.503502 0.482277 0.224460
0.789853 0.500481 0.306493
1.000000 0.539086 0.405249
0.310704 0.742611 0.360174
0.382971 0.743862 0.371435
0.562402 0.747951 0.385626
0.804898 0.766232 0.304723
1.000000 0.760861 0.413977
0.585077 0.983429 0.583368
0.613733 0.983032 0.588830
0.710292 0.982025 0.603418
0.846342 0.985382 0.590814
1.000000 0.990021 0.504143
0.000000 0.104524 0.351965
0.185031 0.084443 0.358373
0.394751 0.000000 0.375402
0.711147 0.000000 0.448920
0.988312 0.000000 0.432654
0.000000 0.205081 0.372656
0.170077 0.194919 0.379187
0.415259 0.169162 0.397345
0.723018 0.123171 0.450752
0.991852 0.000000 0.429145
0.000000 0.433722 0.427924
0.149020 0.443061 0.437751
0.485054 0.483223 0.481422
0.747280 0.474739 0.476783
1.000000 0.471138 0.481361
0.162936 0.736599 0.493233
0.319829 0.740139 0.508934
0.573693 0.751095 0.560784
0.796017 0.768429 0.546136
1.000000 0.790005 0.634943
0.560143 0.987854 0.655055
0.597070 0.987243 0.662959
0.712093 0.985138 0.687343
0.851225 0.985260 0.696376
1.000000 0.990967 0.642573
0.000000 0.126467 0.567132
0.105257 0.103609 0.569238
0.393774 0.000000 0.578332
0.626001 0.000000 0.594079
0.978576 0.000000 0.700893
0.000000 0.204776 0.578851
0.000000 0.191470 0.581048
0.388067 0.127199 0.590997
0.638087 0.000000 0.606226
0.986450 0.000000 0.706325
0.000000 0.427741 0.620783
0.000000 0.423499 0.623011
0.370184 0.392370 0.631769
0.681086 0.366217 0.650813
1.000000 0.441382 0.721889
0.000000 0.684779 0.672236
0.000000 0.688472 0.676112
0.416358 0.706111 0.695155
0.770260 0.762875 0.755764
1.000000 0.750881 0.746120
0.000000 1.000000 0.729854
0.242130 1.000000 0.736202
0.594415 0.997498 0.770382
0.853727 0.990204 0.834745
1.000000 0.993591 0.821347
0.000000 0.263523 0.938567
0.095277 0.243015 0.939055
0.446082 0.102602 0.941375
0.742092 0.000000 0.944274
1.000000 0.000000 0.943633
0.000000 0.324285 0.941588
0.000000 0.307347 0.942077
0.432410 0.217899 0.944640
0.737453 0.000000 0.948669
1.000000 0.000000 0.947875
0.000000 0.518822 0.953155
0.000000 0.506981 0.953552
0.383795 0.452277 0.955749
0.713924 0.323644 0.963378
1.000000 0.200320 0.963989
0.000000 0.762661 0.969207
0.000000 0.760800 0.970062
0.374762 0.748562 0.973327
0.663539 0.681331 0.978576
1.000000 0.616907 0.986145
0.000000 1.000000 0.990570
0.000000 1.000000 0.990997
0.207004 1.000000 0.992645
0.683101 1.000000 0.995514
1.000000 1.000000 1.000000
